;FLAVOR:Marlin
;TIME:7641
;Filament used: 4.48777m
;Layer height: 0.2
;MINX:87.972
;MINY:87.974
;MINZ:0.2
;MAXX:132.028
;MAXY:132.028
;MAXZ:100
;Generated with Cura_SteamEngine 5.4.0
M82 ;absolute extrusion mode
; Ender 3 S1 Pro Start G-code
; M413 S0 ; Disable power loss recovery
G92 E0 ; Reset Extruder

; Prep surfaces before auto home for better accuracy
M140 S60
M104 S200

G28 O ; Home all untrusted axes
M420 S1 Z10
G1 Z10.0 F3000 ; Move Z Axis up little to prevent scratching of Heat Bed
G1 X0 Y0

M190 S60
M109 S200

G1 X0.1 Y20 Z0.3 F5000.0 ; Move to start position
G1 X0.1 Y200.0 Z0.3 F1500.0 E15 ; Draw the first line
G1 X0.4 Y200.0 Z0.3 F5000.0 ; Move to side a little
G1 X0.4 Y20 Z0.3 F1500.0 E30 ; Draw the second line
G92 E0 ; Reset Extruder
G1 Z2.0 F3000 ; Move Z Axis up little to prevent scratching of Heat Bed
G1 X5 Y20 Z0.3 F5000.0 ; Move over to prevent blob squish
G92 E0
G92 E0
G1 F2400 E-0.8
;LAYER_COUNT:500
;LAYER:0
M107
M204 S2000
G1 F300 Z0.4
G0 F7500 X89.524 Y98.81 Z0.4
M204 S500
;TYPE:SKIRT
G1 F300 Z0.2
G1 F2400 E0
G1 F1500 X98.819 Y89.515 E0.43721
G1 X101.204 Y88.227 E0.52736
G1 X102.931 Y88.005 E0.58527
G1 X116.573 Y87.974 E1.03901
G1 X118.471 Y88.187 E1.10253
G1 X118.975 Y88.328 E1.11994
G1 X121.172 Y89.506 E1.20286
G1 X130.494 Y98.828 E1.64133
G1 X131.633 Y100.953 E1.72152
G1 X131.805 Y101.452 E1.73908
G1 X132.028 Y103.476 E1.80681
G1 X131.974 Y117.252 E2.265
G1 X131.745 Y118.831 E2.31807
G1 X130.476 Y121.19 E2.40716
G1 X121.172 Y130.494 E2.84479
G1 X119.047 Y131.633 E2.92498
G1 X118.548 Y131.805 E2.94254
G1 X116.524 Y132.028 E3.01026
G1 X102.748 Y131.974 E3.46846
G1 X101.169 Y131.745 E3.52153
G1 X98.81 Y130.476 E3.61062
G1 X89.506 Y121.172 E4.04825
G1 X88.367 Y119.047 E4.12844
G1 X88.195 Y118.548 E4.146
G1 X87.972 Y116.524 E4.21372
G1 X88.026 Y102.748 E4.67192
G1 X88.255 Y101.169 E4.72498
G1 X89.524 Y98.81 E4.81408
M204 S2000
G0 F7500 X89.847 Y99.053
M204 S500
G1 F1500 X99.061 Y89.839 E5.24747
G1 X101.328 Y88.615 E5.33316
G1 X102.982 Y88.402 E5.38863
G1 X116.528 Y88.372 E5.83917
G1 X118.426 Y88.585 E5.9027
G1 X118.823 Y88.701 E5.91645
G1 X120.931 Y89.831 E5.996
G1 X130.169 Y99.069 E6.43053
G1 X131.28 Y101.142 E6.50876
G1 X131.411 Y101.535 E6.52254
G1 X131.628 Y103.475 E6.58746
G1 X131.578 Y117.195 E7.04379
G1 X131.359 Y118.705 E7.09454
G1 X130.153 Y120.947 E7.17922
G1 X120.931 Y130.169 E7.61299
G1 X118.858 Y131.28 E7.69122
G1 X118.465 Y131.411 E7.70499
G1 X116.525 Y131.628 E7.76992
G1 X102.805 Y131.578 E8.22625
G1 X101.295 Y131.359 E8.277
G1 X99.053 Y130.153 E8.36168
G1 X89.831 Y120.931 E8.79545
G1 X88.72 Y118.858 E8.87368
G1 X88.589 Y118.465 E8.88745
G1 X88.372 Y116.525 E8.95238
G1 X88.422 Y102.805 E9.40871
G1 X88.641 Y101.295 E9.45946
G1 X89.847 Y99.053 E9.54413
M204 S2000
G0 F7500 X90.17 Y99.296
M204 S500
G1 F1500 X99.303 Y90.163 E9.97372
G1 X101.452 Y89.003 E10.05495
G1 X103.033 Y88.799 E10.10797
G1 X116.483 Y88.77 E10.55532
G1 X118.381 Y88.983 E10.61884
G1 X118.669 Y89.073 E10.62888
G1 X120.69 Y90.156 E10.70514
G1 X129.844 Y99.31 E11.13571
G1 X130.927 Y101.331 E11.21198
G1 X131.017 Y101.619 E11.22201
G1 X131.23 Y103.52 E11.28564
G1 X131.182 Y117.138 E11.73857
G1 X130.973 Y118.579 E11.787
G1 X129.83 Y120.704 E11.86726
G1 X120.69 Y129.844 E12.29718
G1 X118.669 Y130.927 E12.37344
G1 X118.381 Y131.017 E12.38347
G1 X116.48 Y131.23 E12.4471
G1 X102.862 Y131.182 E12.90003
G1 X101.421 Y130.973 E12.94846
G1 X99.296 Y129.83 E13.02872
G1 X90.156 Y120.69 E13.45864
G1 X89.073 Y118.669 E13.5349
G1 X88.983 Y118.381 E13.54493
G1 X88.77 Y116.48 E13.60856
G1 X88.818 Y102.862 E14.0615
G1 X89.027 Y101.421 E14.10992
G1 X90.17 Y99.296 E14.19018
M204 S2000
G0 F7500 X90.493 Y99.539
M204 S500
G1 F1500 X99.545 Y90.487 E14.61596
G1 X101.576 Y89.391 E14.69272
G1 X103.084 Y89.196 E14.74329
G1 X116.438 Y89.168 E15.18745
G1 X118.336 Y89.381 E15.25097
G1 X118.48 Y89.426 E15.25599
G1 X120.449 Y90.481 E15.33029
G1 X129.519 Y99.551 E15.75691
G1 X130.574 Y101.52 E15.83121
G1 X130.619 Y101.664 E15.83623
G1 X130.832 Y103.565 E15.89985
G1 X130.786 Y117.081 E16.3494
G1 X130.587 Y118.453 E16.39551
G1 X129.507 Y120.461 E16.47134
G1 X120.449 Y129.519 E16.8974
G1 X118.48 Y130.574 E16.9717
G1 X118.336 Y130.619 E16.97672
G1 X116.435 Y130.832 E17.04034
G1 X102.919 Y130.786 E17.48989
G1 X101.547 Y130.587 E17.536
G1 X99.539 Y129.507 E17.61183
G1 X90.481 Y120.449 E18.03789
G1 X89.426 Y118.48 E18.11219
G1 X89.381 Y118.336 E18.1172
G1 X89.168 Y116.435 E18.18083
G1 X89.214 Y102.919 E18.63037
G1 X89.413 Y101.547 E18.67649
G1 X90.493 Y99.539 E18.75232
M204 S2000
G0 F7500 X90.816 Y99.782
M204 S500
G1 F1500 X99.787 Y90.811 E19.17429
G1 X101.7 Y89.779 E19.24658
G1 X103.135 Y89.593 E19.29471
G1 X116.393 Y89.566 E19.73567
G1 X118.291 Y89.779 E19.7992
G1 X120.208 Y90.806 E19.87153
G1 X129.194 Y99.792 E20.2942
G1 X130.221 Y101.709 E20.36654
G1 X130.434 Y103.61 E20.43016
G1 X130.39 Y117.024 E20.87631
G1 X130.201 Y118.327 E20.92011
G1 X129.184 Y120.218 E20.99152
G1 X120.208 Y129.194 E21.41372
G1 X118.291 Y130.221 E21.48606
G1 X116.39 Y130.434 E21.54968
G1 X102.976 Y130.39 E21.99583
G1 X101.673 Y130.201 E22.03962
G1 X99.782 Y129.184 E22.11104
G1 X90.806 Y120.208 E22.53324
G1 X89.779 Y118.291 E22.60558
G1 X89.566 Y116.39 E22.6692
G1 X89.61 Y102.976 E23.11535
G1 X89.799 Y101.673 E23.15914
G1 X90.816 Y99.782 E23.23056
M204 S2000
G0 F7500 X91.139 Y100.025
M204 S500
G1 F1500 X100.029 Y91.135 E23.64872
G1 X101.824 Y90.167 E23.71655
G1 X103.187 Y89.99 E23.76226
G1 X116.394 Y89.966 E24.20153
G1 X118.168 Y90.167 E24.26091
G1 X119.967 Y91.131 E24.32879
G1 X128.869 Y100.033 E24.74752
G1 X129.833 Y101.832 E24.8154
G1 X130.034 Y103.609 E24.87488
G1 X129.994 Y116.967 E25.31917
G1 X129.815 Y118.201 E25.36064
G1 X128.861 Y119.975 E25.42764
G1 X119.967 Y128.869 E25.84598
G1 X118.168 Y129.833 E25.91387
G1 X116.391 Y130.034 E25.97335
G1 X103.033 Y129.994 E26.41764
G1 X101.799 Y129.815 E26.45911
G1 X100.025 Y128.861 E26.52611
G1 X91.131 Y119.967 E26.94445
G1 X90.167 Y118.168 E27.01234
G1 X89.966 Y116.391 E27.07182
G1 X90.006 Y103.033 E27.51611
G1 X90.185 Y101.799 E27.55758
G1 X91.139 Y100.025 E27.62457
M204 S2000
G0 F7500 X91.462 Y100.268
M204 S500
G1 F1500 X100.271 Y91.459 E28.03892
G1 X101.948 Y90.555 E28.10229
G1 X103.239 Y90.387 E28.14559
G1 X116.395 Y90.366 E28.58316
G1 X118.045 Y90.555 E28.6384
G1 X119.726 Y91.456 E28.70183
G1 X128.544 Y100.274 E29.1166
G1 X129.445 Y101.955 E29.18004
G1 X129.634 Y103.608 E29.23538
G1 X129.598 Y116.91 E29.6778
G1 X129.429 Y118.075 E29.71696
G1 X128.538 Y119.732 E29.77953
G1 X119.726 Y128.544 E30.19402
G1 X118.045 Y129.445 E30.25746
G1 X116.392 Y129.634 E30.31279
G1 X103.09 Y129.598 E30.75522
G1 X101.925 Y129.429 E30.79437
G1 X100.268 Y128.538 E30.85695
G1 X91.456 Y119.726 E31.27144
G1 X90.555 Y118.045 E31.33487
G1 X90.366 Y116.392 E31.39021
G1 X90.402 Y103.09 E31.83264
G1 X90.571 Y101.925 E31.87179
G1 X91.462 Y100.268 E31.93437
M204 S2000
G0 F7500 X91.785 Y100.511
M204 S500
G1 F1500 X100.513 Y91.783 E32.34491
G1 X102.072 Y90.943 E32.40381
G1 X103.291 Y90.784 E32.44469
G1 X116.396 Y90.766 E32.88057
G1 X117.922 Y90.943 E32.93166
G1 X119.485 Y91.781 E32.99065
G1 X128.219 Y100.515 E33.40147
G1 X129.057 Y102.078 E33.46046
G1 X129.234 Y103.607 E33.51165
G1 X129.202 Y116.853 E33.95222
G1 X129.043 Y117.949 E33.98905
G1 X128.215 Y119.489 E34.0472
G1 X119.485 Y128.219 E34.45784
G1 X117.922 Y129.057 E34.51682
G1 X116.393 Y129.234 E34.56802
G1 X103.147 Y129.202 E35.00858
G1 X102.051 Y129.043 E35.04542
G1 X100.511 Y128.215 E35.10357
G1 X91.781 Y119.485 E35.5142
G1 X90.943 Y117.922 E35.57319
G1 X90.766 Y116.393 E35.62438
G1 X90.798 Y103.147 E36.06495
G1 X90.957 Y102.051 E36.10178
G1 X91.785 Y100.511 E36.15994
M204 S2000
G0 F7500 X92.108 Y100.754
M204 S500
G1 F1500 X100.755 Y92.107 E36.56667
G1 X102.196 Y91.331 E36.6211
G1 X103.343 Y91.181 E36.65958
G1 X116.396 Y91.166 E37.09372
G1 X117.801 Y91.331 E37.14077
G1 X119.242 Y92.104 E37.19516
G1 X127.896 Y100.758 E37.60222
G1 X128.669 Y102.199 E37.65661
G1 X128.834 Y103.606 E37.70373
G1 X128.806 Y116.796 E38.14243
G1 X128.657 Y117.823 E38.17694
G1 X127.892 Y119.246 E38.23068
G1 X119.242 Y127.896 E38.63755
G1 X117.801 Y128.669 E38.69194
G1 X116.394 Y128.834 E38.73905
G1 X103.204 Y128.806 E39.17776
G1 X102.177 Y128.657 E39.21227
G1 X100.754 Y127.892 E39.26601
G1 X92.104 Y119.242 E39.67288
G1 X91.331 Y117.801 E39.72726
G1 X91.166 Y116.394 E39.77438
G1 X91.194 Y103.204 E40.21308
G1 X91.343 Y102.177 E40.2476
G1 X92.108 Y100.754 E40.30134
M204 S2000
G0 F7500 X92.431 Y100.997
M204 S500
G1 F1500 X100.997 Y92.431 E40.70425
G1 X102.32 Y91.719 E40.75422
G1 X103.395 Y91.578 E40.79029
G1 X116.396 Y91.566 E41.2227
G1 X117.677 Y91.719 E41.26561
G1 X119.001 Y92.429 E41.31558
G1 X127.571 Y100.999 E41.71868
G1 X128.281 Y102.323 E41.76865
G1 X128.434 Y103.605 E41.8116
G1 X128.41 Y116.739 E42.24843
G1 X128.271 Y117.697 E42.28063
G1 X127.569 Y119.003 E42.32995
G1 X119.001 Y127.571 E42.73296
G1 X117.677 Y128.281 E42.78293
G1 X116.395 Y128.434 E42.82587
G1 X103.261 Y128.41 E43.26271
G1 X102.303 Y128.271 E43.29491
G1 X100.997 Y127.569 E43.34422
G1 X92.429 Y119.001 E43.74723
G1 X91.719 Y117.677 E43.7972
G1 X91.566 Y116.395 E43.84014
G1 X91.59 Y103.261 E44.27698
G1 X91.729 Y102.303 E44.30918
G1 X92.431 Y100.997 E44.3585
M204 S2000
G0 F7500 X92.754 Y101.24
M204 S500
G1 F1500 X101.24 Y92.754 E44.75765
G1 X102.443 Y92.107 E44.80308
G1 X103.447 Y91.975 E44.83676
G1 X116.396 Y91.966 E45.26745
G1 X117.556 Y92.107 E45.30631
G1 X118.758 Y92.752 E45.35169
G1 X127.248 Y101.242 E45.75103
G1 X127.893 Y102.444 E45.7964
G1 X128.034 Y103.604 E45.83527
G1 X128.014 Y116.682 E46.27024
G1 X127.885 Y117.571 E46.30012
G1 X127.246 Y118.76 E46.34502
G1 X118.758 Y127.248 E46.74427
G1 X117.556 Y127.893 E46.78964
G1 X116.396 Y128.034 E46.8285
G1 X103.318 Y128.014 E47.26348
G1 X102.429 Y127.885 E47.29336
G1 X101.24 Y127.246 E47.33825
G1 X92.752 Y118.758 E47.7375
G1 X92.107 Y117.556 E47.78287
G1 X91.966 Y116.396 E47.82174
G1 X91.986 Y103.318 E48.25671
G1 X92.115 Y102.429 E48.28659
G1 X92.754 Y101.24 E48.33149
M204 S2000
G0 F7500 X93.077 Y101.483
M204 S500
G1 F1500 X101.483 Y93.077 E48.72688
G1 X102.566 Y92.495 E48.76777
G1 X103.499 Y92.372 E48.79907
G1 X116.396 Y92.366 E49.22803
G1 X117.434 Y92.495 E49.26282
G1 X118.515 Y93.075 E49.30362
G1 X126.925 Y101.485 E49.6992
G1 X127.505 Y102.566 E49.74
G1 X127.634 Y103.604 E49.77479
G1 X127.618 Y116.625 E50.20787
G1 X127.499 Y117.445 E50.23543
G1 X126.923 Y118.517 E50.27591
G1 X118.515 Y126.925 E50.6714
G1 X117.434 Y127.505 E50.7122
G1 X116.396 Y127.634 E50.74699
G1 X103.375 Y127.618 E51.18007
G1 X102.555 Y127.499 E51.20763
G1 X101.483 Y126.923 E51.2481
G1 X93.075 Y118.515 E51.64359
G1 X92.495 Y117.434 E51.68439
G1 X92.366 Y116.396 E51.71918
G1 X92.382 Y103.375 E52.15226
G1 X92.501 Y102.555 E52.17982
G1 X93.077 Y101.483 E52.2203
M204 S2000
G0 F7500 X93.4 Y101.726
M204 S500
G1 F1500 X101.726 Y93.4 E52.61193
G1 X102.689 Y92.883 E52.64828
G1 X103.551 Y92.769 E52.6772
G1 X116.396 Y92.766 E53.10443
G1 X117.31 Y92.883 E53.13507
G1 X118.274 Y93.4 E53.17146
G1 X126.6 Y101.726 E53.56309
G1 X127.117 Y102.69 E53.59947
G1 X127.234 Y103.604 E53.63012
G1 X127.222 Y116.568 E54.0613
G1 X127.113 Y117.319 E54.08654
G1 X126.6 Y118.274 E54.1226
G1 X118.274 Y126.6 E54.51423
G1 X117.31 Y127.117 E54.55061
G1 X116.396 Y127.234 E54.58126
G1 X103.432 Y127.222 E55.01244
G1 X102.681 Y127.113 E55.03768
G1 X101.726 Y126.6 E55.07374
G1 X93.4 Y118.274 E55.46537
G1 X92.883 Y117.31 E55.50175
G1 X92.766 Y116.396 E55.5324
G1 X92.778 Y103.432 E55.96358
G1 X92.887 Y102.681 E55.98882
G1 X93.4 Y101.726 E56.02488
M204 S2000
G0 F7500 X93.723 Y101.969
M204 S500
G1 F1500 X101.969 Y93.723 E56.41275
G1 X102.811 Y93.271 E56.44453
G1 X103.604 Y93.166 E56.47114
G1 X116.396 Y93.166 E56.8966
G1 X117.189 Y93.271 E56.92321
G1 X118.031 Y93.723 E56.95499
G1 X126.277 Y101.969 E57.34286
G1 X126.729 Y102.811 E57.37464
G1 X126.834 Y103.604 E57.40125
G1 X126.826 Y116.511 E57.83054
G1 X126.727 Y117.193 E57.85346
G1 X126.277 Y118.031 E57.88509
G1 X118.031 Y126.277 E58.27296
G1 X117.189 Y126.729 E58.30475
G1 X116.396 Y126.834 E58.33135
G1 X103.489 Y126.826 E58.76064
G1 X102.807 Y126.727 E58.78356
G1 X101.969 Y126.277 E58.8152
G1 X93.723 Y118.031 E59.20306
G1 X93.271 Y117.189 E59.23485
G1 X93.166 Y116.396 E59.26146
G1 X93.174 Y103.489 E59.69074
G1 X93.273 Y102.807 E59.71367
G1 X93.723 Y101.969 E59.7453
M204 S2000
G0 F7500 X94.046 Y102.212
M204 S500
G1 F1500 X102.212 Y94.046 E60.12941
G1 X102.935 Y93.658 E60.1567
G1 X103.604 Y93.566 E60.17916
G1 X116.396 Y93.566 E60.60462
G1 X117.065 Y93.658 E60.62708
G1 X117.788 Y94.046 E60.65437
G1 X125.954 Y102.212 E61.03848
G1 X126.342 Y102.935 E61.06577
G1 X126.434 Y103.604 E61.08823
G1 X126.43 Y116.454 E61.51562
G1 X126.341 Y117.067 E61.53622
G1 X125.954 Y117.788 E61.56344
G1 X117.788 Y125.954 E61.94754
G1 X117.065 Y126.342 E61.97483
G1 X116.396 Y126.434 E61.99729
G1 X103.546 Y126.43 E62.42469
G1 X102.933 Y126.341 E62.44529
G1 X102.212 Y125.954 E62.47251
G1 X94.046 Y117.788 E62.85661
G1 X93.658 Y117.065 E62.8839
G1 X93.566 Y116.396 E62.90636
G1 X93.57 Y103.546 E63.33375
G1 X93.659 Y102.933 E63.35436
G1 X94.046 Y102.212 E63.38157
M204 S2000
G0 F7500 X94.371 Y102.453
M204 S500
G1 F1500 X102.453 Y94.371 E63.76172
G1 X103.061 Y94.045 E63.78467
G1 X103.604 Y93.966 E63.80292
G1 X116.396 Y93.966 E64.22838
G1 X116.939 Y94.045 E64.24663
G1 X117.547 Y94.371 E64.26958
G1 X125.629 Y102.453 E64.64973
G1 X125.955 Y103.061 E64.67268
G1 X126.034 Y103.604 E64.69093
G1 X126.034 Y116.396 E65.11639
G1 X125.955 Y116.939 E65.13464
G1 X125.629 Y117.547 E65.15759
G1 X117.547 Y125.629 E65.53774
G1 X116.939 Y125.955 E65.56069
G1 X116.396 Y126.034 E65.57894
G1 X103.604 Y126.034 E66.0044
G1 X103.061 Y125.955 E66.02265
G1 X102.453 Y125.629 E66.0456
G1 X94.371 Y117.547 E66.42575
G1 X94.045 Y116.939 E66.44869
G1 X93.966 Y116.396 E66.46694
G1 X93.966 Y103.604 E66.89241
G1 X94.045 Y103.061 E66.91066
G1 X94.371 Y102.453 E66.9336
M204 S2000
G0 F7500 X94.696 Y102.694
M204 S500
G1 F1500 X102.694 Y94.696 E67.30981
G1 X103.19 Y94.43 E67.32853
G1 X103.604 Y94.366 E67.34246
G1 X116.396 Y94.366 E67.76792
G1 X116.81 Y94.43 E67.78186
G1 X117.306 Y94.696 E67.80058
G1 X125.304 Y102.694 E68.17678
G1 X125.57 Y103.19 E68.1955
G1 X125.634 Y103.604 E68.20943
G1 X125.634 Y116.396 E68.63489
G1 X125.57 Y116.81 E68.64883
G1 X125.304 Y117.306 E68.66755
G1 X117.306 Y125.304 E69.04375
G1 X116.81 Y125.57 E69.06247
G1 X116.396 Y125.634 E69.0764
G1 X103.604 Y125.634 E69.50186
G1 X103.19 Y125.57 E69.5158
G1 X102.694 Y125.304 E69.53452
G1 X94.696 Y117.306 E69.91072
G1 X94.43 Y116.81 E69.92944
G1 X94.366 Y116.396 E69.94337
G1 X94.366 Y103.604 E70.36883
G1 X94.43 Y103.19 E70.38277
G1 X94.696 Y102.694 E70.40149
M204 S2000
G0 F7500 X95.019 Y102.937
M204 S500
G1 F1500 X102.937 Y95.019 E70.77393
G1 X103.319 Y94.814 E70.78835
G1 X103.604 Y94.766 E70.79796
G1 X116.396 Y94.766 E71.22342
G1 X116.681 Y94.814 E71.23303
G1 X117.063 Y95.019 E71.24745
G1 X124.981 Y102.937 E71.61989
G1 X125.186 Y103.319 E71.63431
G1 X125.234 Y103.604 E71.64392
G1 X125.234 Y116.396 E72.06939
G1 X125.186 Y116.681 E72.079
G1 X124.981 Y117.063 E72.09342
G1 X117.063 Y124.981 E72.46586
G1 X116.681 Y125.186 E72.48028
G1 X116.396 Y125.234 E72.48989
G1 X103.604 Y125.234 E72.91535
G1 X103.319 Y125.186 E72.92497
G1 X102.937 Y124.981 E72.93939
G1 X95.019 Y117.063 E73.31182
G1 X94.814 Y116.681 E73.32624
G1 X94.766 Y116.396 E73.33586
G1 X94.766 Y103.604 E73.76132
G1 X94.814 Y103.319 E73.77093
G1 X95.019 Y102.937 E73.78535
M204 S2000
G0 F7500 X95.625 Y103.463
M204 S500
G1 F1500 X103.463 Y95.625 E74.15403
G1 X103.604 Y95.566 E74.15911
G1 X116.396 Y95.566 E74.58457
G1 X116.537 Y95.625 E74.58966
G1 X124.375 Y103.463 E74.95833
G1 X124.434 Y103.604 E74.96342
G1 X124.434 Y116.396 E75.38888
G1 X124.375 Y116.537 E75.39396
G1 X116.537 Y124.375 E75.76264
G1 X116.396 Y124.434 E75.76772
G1 X103.604 Y124.434 E76.19319
G1 X103.463 Y124.375 E76.19827
G1 X95.625 Y116.537 E76.56695
G1 X95.566 Y116.396 E76.57203
G1 X95.566 Y103.604 E76.99749
G1 X95.625 Y103.463 E77.00258
M204 S2000
G0 F7500 X95.342 Y103.18
M204 S500
