;FLAVOR:Marlin
;TIME:5365
;Filament used: 4.24063m
;Layer height: 0.2
;MINX:49
;MINY:62.5
;MINZ:0.2
;MAXX:171
;MAXY:94.5
;MAXZ:10
;Generated with Cura_SteamEngine 5.4.0
M82 ;absolute extrusion mode
; Ender 3 S1 Pro Start G-code
; M413 S0 ; Disable power loss recovery
G92 E0 ; Reset Extruder

; Prep surfaces before auto home for better accuracy
M140 S60
M104 S200

G28 O ; Home all untrusted axes
M420 S1 Z10
G1 Z10.0 F3000 ; Move Z Axis up little to prevent scratching of Heat Bed
G1 X0 Y0

M190 S60
M109 S200

G1 X0.1 Y20 Z0.3 F5000.0 ; Move to start position
G1 X0.1 Y200.0 Z0.3 F1500.0 E15 ; Draw the first line
G1 X0.4 Y200.0 Z0.3 F5000.0 ; Move to side a little
G1 X0.4 Y20 Z0.3 F1500.0 E30 ; Draw the second line
G92 E0 ; Reset Extruder
G1 Z2.0 F3000 ; Move Z Axis up little to prevent scratching of Heat Bed
G1 X5 Y20 Z0.3 F5000.0 ; Move over to prevent blob squish
G92 E0
G92 E0
G1 F2400 E-0.8
;LAYER_COUNT:50
;LAYER:0
M107
M204 S2000
G1 F300 Z0.4
G0 F7500 X53.192 Y64.876 Z0.4
M204 S500
;TYPE:SKIRT
G1 F300 Z0.2
G1 F2400 E0
G1 F1500 X53.924 Y64.346 E0.03006
G1 X54.821 Y63.811 E0.0648
G1 X55.699 Y63.39 E0.09718
G1 X56.612 Y63.048 E0.12961
G1 X57.549 Y62.789 E0.16194
G1 X58.516 Y62.611 E0.19465
G1 X59.655 Y62.515 E0.23266
G1 X60.312 Y62.5 E0.25452
G1 X159.304 Y62.5 E3.54701
G1 X160.184 Y62.513 E3.57628
G1 X161.156 Y62.572 E3.60867
G1 X162.119 Y62.718 E3.64106
G1 X163.066 Y62.949 E3.67348
G1 X163.954 Y63.249 E3.70466
G1 X164.846 Y63.639 E3.73704
G1 X165.729 Y64.126 E3.77058
G1 X166.48 Y64.628 E3.80062
G1 X167.295 Y65.286 E3.83546
G1 X167.993 Y65.964 E3.86783
G1 X168.629 Y66.701 E3.90021
G1 X169.199 Y67.491 E3.93261
G1 X169.661 Y68.267 E3.96264
G1 X170.115 Y69.209 E3.99742
G1 X170.444 Y70.087 E4.02861
G1 X170.713 Y71.059 E4.06215
G1 X170.89 Y72.025 E4.09482
G1 X170.985 Y73.155 E4.13253
G1 X171 Y73.83 E4.15499
G1 X170.999 Y82.9 E4.45666
G1 X170.988 Y83.663 E4.48204
G1 X170.931 Y84.636 E4.51446
G1 X170.786 Y85.599 E4.54685
G1 X170.557 Y86.545 E4.57922
G1 X170.246 Y87.469 E4.61165
G1 X169.854 Y88.36 E4.64402
G1 X169.386 Y89.212 E4.67635
G1 X168.864 Y89.993 E4.7076
G1 X168.231 Y90.778 E4.74114
G1 X167.606 Y91.429 E4.77115
G1 X166.817 Y92.117 E4.80597
G1 X166.057 Y92.667 E4.83718
G1 X165.19 Y93.184 E4.87075
G1 X164.312 Y93.606 E4.90315
G1 X163.401 Y93.948 E4.93551
G1 X162.462 Y94.209 E4.96793
G1 X161.496 Y94.387 E5.0006
G1 X160.345 Y94.485 E5.03902
G1 X159.67 Y94.5 E5.06148
G1 X60.564 Y94.499 E8.35776
G1 X59.831 Y94.488 E8.38214
G1 X58.859 Y94.431 E8.41452
G1 X57.896 Y94.285 E8.44692
G1 X56.95 Y94.056 E8.47929
G1 X56.026 Y93.744 E8.51173
G1 X55.136 Y93.352 E8.54407
G1 X54.313 Y92.901 E8.57529
G1 X53.474 Y92.34 E8.60886
G1 X52.77 Y91.774 E8.6389
G1 X52.017 Y91.049 E8.67367
G1 X51.38 Y90.313 E8.70604
G1 X50.85 Y89.582 E8.73607
G1 X50.314 Y88.685 E8.77083
G1 X49.892 Y87.807 E8.80323
G1 X49.55 Y86.895 E8.83562
G1 X49.29 Y85.957 E8.868
G1 X49.112 Y84.988 E8.90077
G1 X49.014 Y83.809 E8.94012
G1 X49 Y83.158 E8.96177
G1 X49.001 Y74.025 E9.26554
G1 X49.012 Y73.325 E9.28882
G1 X49.07 Y72.352 E9.32124
G1 X49.216 Y71.389 E9.35364
G1 X49.446 Y70.443 E9.38602
G1 X49.759 Y69.52 E9.41843
G1 X50.151 Y68.63 E9.45078
G1 X50.621 Y67.777 E9.48317
G1 X51.164 Y66.969 E9.51555
G1 X51.731 Y66.265 E9.54562
G1 X52.456 Y65.513 E9.58036
G1 X53.192 Y64.876 E9.61273
M204 S2000
G0 F7500 X53.427 Y65.2
M204 S500
G1 F1500 X54.159 Y64.67 E9.64279
G1 X54.995 Y64.171 E9.67517
G1 X55.84 Y63.764 E9.70637
G1 X56.719 Y63.433 E9.73761
G1 X57.622 Y63.182 E9.76878
G1 X58.55 Y63.01 E9.80017
G1 X59.689 Y62.914 E9.83819
G1 X60.321 Y62.9 E9.85922
G1 X159.298 Y62.9 E13.1512
G1 X160.16 Y62.912 E13.17988
G1 X161.097 Y62.968 E13.2111
G1 X162.025 Y63.107 E13.24231
G1 X162.938 Y63.328 E13.27355
G1 X163.794 Y63.616 E13.30359
G1 X164.686 Y64.006 E13.33597
G1 X165.507 Y64.459 E13.36716
G1 X166.258 Y64.961 E13.3972
G1 X167.017 Y65.573 E13.42963
G1 X167.691 Y66.226 E13.46084
G1 X168.305 Y66.935 E13.49204
G1 X168.855 Y67.696 E13.52327
G1 X169.317 Y68.472 E13.55331
G1 X169.74 Y69.349 E13.58569
G1 X170.069 Y70.227 E13.61688
G1 X170.32 Y71.132 E13.64811
G1 X170.491 Y72.059 E13.67947
G1 X170.586 Y73.189 E13.71718
G1 X170.6 Y73.83 E13.73851
G1 X170.599 Y82.895 E14.04001
G1 X170.589 Y83.64 E14.06479
G1 X170.535 Y84.577 E14.09601
G1 X170.397 Y85.506 E14.12724
G1 X170.178 Y86.418 E14.15844
G1 X169.88 Y87.308 E14.18966
G1 X169.503 Y88.168 E14.22089
G1 X169.053 Y88.99 E14.25206
G1 X168.531 Y89.771 E14.2833
G1 X167.942 Y90.501 E14.3145
G1 X167.317 Y91.152 E14.34451
G1 X166.582 Y91.793 E14.37695
G1 X165.822 Y92.343 E14.40815
G1 X165.016 Y92.824 E14.43937
G1 X164.171 Y93.232 E14.47058
G1 X163.293 Y93.563 E14.50179
G1 X162.389 Y93.816 E14.53301
G1 X161.462 Y93.988 E14.56437
G1 X160.311 Y94.086 E14.60279
G1 X159.67 Y94.1 E14.62412
G1 X60.57 Y94.099 E17.9202
G1 X59.854 Y94.089 E17.94401
G1 X58.918 Y94.035 E17.9752
G1 X57.989 Y93.896 E18.00644
G1 X57.077 Y93.677 E18.03763
G1 X56.187 Y93.378 E18.06886
G1 X55.328 Y93.001 E18.10006
G1 X54.505 Y92.55 E18.13128
G1 X53.725 Y92.028 E18.16249
G1 X53.021 Y91.462 E18.19254
G1 X52.319 Y90.787 E18.22493
G1 X51.704 Y90.078 E18.25615
G1 X51.174 Y89.347 E18.28618
G1 X50.674 Y88.511 E18.31858
G1 X50.266 Y87.666 E18.34979
G1 X49.935 Y86.788 E18.38099
G1 X49.683 Y85.884 E18.41221
G1 X49.511 Y84.955 E18.44363
G1 X49.413 Y83.776 E18.48298
G1 X49.4 Y83.158 E18.50354
G1 X49.401 Y74.031 E18.8071
G1 X49.411 Y73.348 E18.82982
G1 X49.466 Y72.411 E18.86104
G1 X49.605 Y71.483 E18.89225
G1 X49.825 Y70.571 E18.92346
G1 X50.125 Y69.681 E18.95469
G1 X50.502 Y68.822 E18.98589
G1 X50.953 Y68 E19.01708
G1 X51.476 Y67.22 E19.04831
G1 X52.043 Y66.516 E19.07838
G1 X52.718 Y65.815 E19.11075
G1 X53.427 Y65.2 E19.14196
M204 S2000
G0 F7500 X53.662 Y65.524
M204 S500
G1 F1500 X54.394 Y64.994 E19.17202
G1 X55.169 Y64.531 E19.20205
G1 X55.982 Y64.138 E19.23208
G1 X56.827 Y63.818 E19.26213
G1 X57.696 Y63.575 E19.29215
G1 X58.584 Y63.409 E19.32219
G1 X59.723 Y63.313 E19.36021
G1 X60.33 Y63.3 E19.3804
G1 X159.293 Y63.3 E22.67193
G1 X160.137 Y63.311 E22.7
G1 X161.039 Y63.364 E22.73005
G1 X161.932 Y63.496 E22.76008
G1 X162.81 Y63.707 E22.79011
G1 X163.666 Y63.995 E22.82015
G1 X164.493 Y64.357 E22.85017
G1 X165.285 Y64.792 E22.88023
G1 X166.036 Y65.294 E22.91027
G1 X166.739 Y65.861 E22.94031
G1 X167.389 Y66.488 E22.97035
G1 X167.981 Y67.17 E23.00039
G1 X168.511 Y67.901 E23.03042
G1 X168.973 Y68.677 E23.06046
G1 X169.366 Y69.49 E23.09049
G1 X169.684 Y70.335 E23.12052
G1 X169.927 Y71.205 E23.15056
G1 X170.092 Y72.093 E23.1806
G1 X170.187 Y73.223 E23.21832
G1 X170.2 Y73.83 E23.23851
G1 X170.199 Y82.89 E23.53985
G1 X170.19 Y83.617 E23.56403
G1 X170.139 Y84.519 E23.59408
G1 X170.008 Y85.413 E23.62413
G1 X169.799 Y86.291 E23.65415
G1 X169.513 Y87.148 E23.6842
G1 X169.152 Y87.976 E23.71424
G1 X168.72 Y88.768 E23.74425
G1 X168.219 Y89.52 E23.7743
G1 X167.653 Y90.224 E23.80435
G1 X167.028 Y90.875 E23.83436
G1 X166.347 Y91.469 E23.86442
G1 X165.616 Y92 E23.89447
G1 X164.842 Y92.464 E23.92449
G1 X164.029 Y92.858 E23.95453
G1 X163.185 Y93.178 E23.98456
G1 X162.315 Y93.423 E24.01462
G1 X161.428 Y93.589 E24.04463
G1 X160.277 Y93.687 E24.08305
G1 X159.67 Y93.7 E24.10325
G1 X60.575 Y93.699 E27.39916
G1 X59.877 Y93.69 E27.42238
G1 X58.976 Y93.639 E27.45239
G1 X58.082 Y93.507 E27.48245
G1 X57.204 Y93.298 E27.51247
G1 X56.347 Y93.011 E27.54253
G1 X55.52 Y92.65 E27.57254
G1 X54.727 Y92.217 E27.60259
G1 X53.976 Y91.716 E27.63262
G1 X53.272 Y91.15 E27.66266
G1 X52.621 Y90.524 E27.6927
G1 X52.028 Y89.843 E27.72273
G1 X51.498 Y89.112 E27.75277
G1 X51.034 Y88.337 E27.78281
G1 X50.64 Y87.524 E27.81286
G1 X50.32 Y86.68 E27.84288
G1 X50.076 Y85.81 E27.87293
G1 X49.91 Y84.922 E27.90298
G1 X49.813 Y83.767 E27.94153
G1 X49.8 Y83.158 E27.96179
G1 X49.801 Y74.036 E28.26519
G1 X49.81 Y73.371 E28.28731
G1 X49.862 Y72.469 E28.31736
G1 X49.994 Y71.576 E28.34738
G1 X50.204 Y70.698 E28.37741
G1 X50.491 Y69.841 E28.40747
G1 X50.853 Y69.014 E28.43749
G1 X51.286 Y68.222 E28.46752
G1 X51.788 Y67.471 E28.49756
G1 X52.355 Y66.767 E28.52763
G1 X52.981 Y66.117 E28.55764
G1 X53.662 Y65.524 E28.58767
M204 S2000
G1 F2400 E27.78767
G1 F300 Z0.4
;MESH:Testbar_1x1x10.stl
G0 F7500 X159.4 Y82.9 Z0.4
M204 S500
;TYPE:WALL-INNER
G1 F300 Z0.2
G1 F2400 E28.58767
G1 F1500 X159.4 Y74.1 E28.88036
G1 X60.6 Y74.1 E32.16647
G1 X60.6 Y82.9 E32.45915
G1 X159.4 Y82.9 E35.74526
M204 S2000
G0 F7500 X159.8 Y83.3
M204 S500
;TYPE:WALL-OUTER
G1 F1440 X159.8 Y73.7 E36.06455
G1 X60.2 Y73.7 E39.37726
G1 X60.2 Y83.3 E39.69656
G1 X159.8 Y83.3 E43.00927
M204 S2000
G0 F7500 X159.04 Y82.54
M204 S500
;TYPE:SKIN
G1 F1500 X60.96 Y82.54 E46.27142
G1 X60.96 Y74.46 E46.54017
G1 X159.04 Y74.46 E49.80232
G1 X159.04 Y82.54 E50.07106
M204 S2000
G1 F2400 E49.27106
G1 F300 Z0.4
G0 F7500 X158.839 Y75.118 Z0.4
M204 S500
G1 F300 Z0.2
G1 F2400 E50.07106
G1 F1500 X158.381 Y74.659 E50.09263
M204 S2000
G0 F7500 X157.815 Y74.659
M204 S500
G1 F1500 X158.839 Y75.683 E50.14079
M204 S2000
G0 F7500 X158.839 Y76.249
M204 S500
G1 F1500 X157.249 Y74.659 E50.21558
M204 S2000
G0 F7500 X156.684 Y74.659
M204 S500
G1 F1500 X158.839 Y76.815 E50.31697
M204 S2000
G0 F7500 X158.839 Y77.38
M204 S500
G1 F1500 X156.118 Y74.659 E50.44496
M204 S2000
G0 F7500 X155.552 Y74.659
M204 S500
G1 F1500 X158.839 Y77.946 E50.59957
M204 S2000
G0 F7500 X158.839 Y78.512
M204 S500
G1 F1500 X154.987 Y74.659 E50.78078
M204 S2000
G0 F7500 X154.421 Y74.659
M204 S500
G1 F1500 X158.839 Y79.077 E50.98859
M204 S2000
G0 F7500 X158.839 Y79.643
M204 S500
G1 F1500 X153.855 Y74.659 E51.22302
M204 S2000
G0 F7500 X153.29 Y74.659
M204 S500
G1 F1500 X158.839 Y80.209 E51.48405
M204 S2000
G0 F7500 X158.839 Y80.774
M204 S500
G1 F1500 X152.724 Y74.659 E51.77168
M204 S2000
G0 F7500 X152.158 Y74.659
M204 S500
G1 F1500 X158.839 Y81.34 E52.08594
M204 S2000
G0 F7500 X158.839 Y81.906
M204 S500
G1 F1500 X151.593 Y74.659 E52.42679
M204 S2000
G0 F7500 X151.027 Y74.659
M204 S500
G1 F1500 X158.707 Y82.339 E52.78803
M204 S2000
G0 F7500 X158.141 Y82.339
M204 S500
G1 F1500 X150.461 Y74.659 E53.14928
M204 S2000
G0 F7500 X149.896 Y74.659
M204 S500
G1 F1500 X157.575 Y82.339 E53.5105
M204 S2000
G0 F7500 X157.01 Y82.339
M204 S500
G1 F1500 X149.33 Y74.659 E53.87174
M204 S2000
G0 F7500 X148.764 Y74.659
M204 S500
G1 F1500 X156.444 Y82.339 E54.23298
M204 S2000
G0 F7500 X155.878 Y82.339
M204 S500
G1 F1500 X148.198 Y74.659 E54.59423
M204 S2000
G0 F7500 X147.633 Y74.659
M204 S500
G1 F1500 X155.313 Y82.339 E54.95547
M204 S2000
G0 F7500 X154.747 Y82.339
M204 S500
G1 F1500 X147.067 Y74.659 E55.31671
M204 S2000
G0 F7500 X146.501 Y74.659
M204 S500
G1 F1500 X154.181 Y82.339 E55.67796
M204 S2000
G0 F7500 X153.616 Y82.339
M204 S500
G1 F1500 X145.936 Y74.659 E56.0392
M204 S2000
G0 F7500 X145.37 Y74.659
M204 S500
G1 F1500 X153.05 Y82.339 E56.40045
M204 S2000
G0 F7500 X152.484 Y82.339
M204 S500
G1 F1500 X144.804 Y74.659 E56.76169
M204 S2000
G0 F7500 X144.239 Y74.659
M204 S500
G1 F1500 X151.919 Y82.339 E57.12293
M204 S2000
G0 F7500 X151.353 Y82.339
M204 S500
G1 F1500 X143.673 Y74.659 E57.48418
M204 S2000
G0 F7500 X143.107 Y74.659
M204 S500
G1 F1500 X150.787 Y82.339 E57.84542
M204 S2000
G0 F7500 X150.222 Y82.339
M204 S500
G1 F1500 X142.542 Y74.659 E58.20666
M204 S2000
G0 F7500 X141.976 Y74.659
M204 S500
G1 F1500 X149.656 Y82.339 E58.56791
M204 S2000
G0 F7500 X149.09 Y82.339
M204 S500
G1 F1500 X141.41 Y74.659 E58.92915
M204 S2000
G0 F7500 X140.845 Y74.659
M204 S500
G1 F1500 X148.524 Y82.339 E59.29037
M204 S2000
G0 F7500 X147.959 Y82.339
M204 S500
G1 F1500 X140.279 Y74.659 E59.65161
M204 S2000
G0 F7500 X139.713 Y74.659
M204 S500
G1 F1500 X147.393 Y82.339 E60.01286
M204 S2000
G0 F7500 X146.827 Y82.339
M204 S500
G1 F1500 X139.148 Y74.659 E60.37408
M204 S2000
G0 F7500 X138.582 Y74.659
M204 S500
G1 F1500 X146.262 Y82.339 E60.73532
M204 S2000
G0 F7500 X145.696 Y82.339
M204 S500
G1 F1500 X138.016 Y74.659 E61.09657
M204 S2000
G0 F7500 X137.45 Y74.659
M204 S500
G1 F1500 X145.13 Y82.339 E61.45781
M204 S2000
G0 F7500 X144.565 Y82.339
M204 S500
G1 F1500 X136.885 Y74.659 E61.81905
M204 S2000
G0 F7500 X136.319 Y74.659
M204 S500
G1 F1500 X143.999 Y82.339 E62.1803
M204 S2000
G0 F7500 X143.433 Y82.339
M204 S500
G1 F1500 X135.753 Y74.659 E62.54154
M204 S2000
G0 F7500 X135.188 Y74.659
M204 S500
G1 F1500 X142.868 Y82.339 E62.90278
M204 S2000
G0 F7500 X142.302 Y82.339
M204 S500
G1 F1500 X134.622 Y74.659 E63.26403
M204 S2000
G0 F7500 X134.056 Y74.659
M204 S500
G1 F1500 X141.736 Y82.339 E63.62527
M204 S2000
G0 F7500 X141.171 Y82.339
M204 S500
G1 F1500 X133.491 Y74.659 E63.98651
M204 S2000
G0 F7500 X132.925 Y74.659
M204 S500
G1 F1500 X140.605 Y82.339 E64.34776
M204 S2000
G0 F7500 X140.039 Y82.339
M204 S500
G1 F1500 X132.359 Y74.659 E64.709
M204 S2000
G0 F7500 X131.794 Y74.659
M204 S500
G1 F1500 X139.473 Y82.339 E65.07022
M204 S2000
G0 F7500 X138.908 Y82.339
M204 S500
G1 F1500 X131.228 Y74.659 E65.43147
M204 S2000
G0 F7500 X130.662 Y74.659
M204 S500
G1 F1500 X138.342 Y82.339 E65.79271
M204 S2000
G0 F7500 X137.776 Y82.339
M204 S500
G1 F1500 X130.097 Y74.659 E66.15393
M204 S2000
G0 F7500 X129.531 Y74.659
M204 S500
G1 F1500 X137.211 Y82.339 E66.51517
M204 S2000
G0 F7500 X136.645 Y82.339
M204 S500
G1 F1500 X128.965 Y74.659 E66.87642
M204 S2000
G0 F7500 X128.399 Y74.659
M204 S500
G1 F1500 X136.079 Y82.339 E67.23766
M204 S2000
G0 F7500 X135.514 Y82.339
M204 S500
G1 F1500 X127.834 Y74.659 E67.5989
M204 S2000
G0 F7500 X127.268 Y74.659
M204 S500
G1 F1500 X134.948 Y82.339 E67.96015
M204 S2000
G0 F7500 X134.382 Y82.339
M204 S500
G1 F1500 X126.702 Y74.659 E68.32139
M204 S2000
G0 F7500 X126.137 Y74.659
M204 S500
G1 F1500 X133.817 Y82.339 E68.68264
M204 S2000
G0 F7500 X133.251 Y82.339
M204 S500
G1 F1500 X125.571 Y74.659 E69.04388
M204 S2000
G0 F7500 X125.005 Y74.659
M204 S500
G1 F1500 X132.685 Y82.339 E69.40512
M204 S2000
G0 F7500 X132.12 Y82.339
M204 S500
G1 F1500 X124.44 Y74.659 E69.76637
M204 S2000
G0 F7500 X123.874 Y74.659
M204 S500
G1 F1500 X131.554 Y82.339 E70.12761
M204 S2000
G0 F7500 X130.988 Y82.339
M204 S500
G1 F1500 X123.308 Y74.659 E70.48885
M204 S2000
G0 F7500 X122.743 Y74.659
M204 S500
G1 F1500 X130.423 Y82.339 E70.8501
M204 S2000
G0 F7500 X129.857 Y82.339
M204 S500
G1 F1500 X122.177 Y74.659 E71.21134
M204 S2000
G0 F7500 X121.611 Y74.659
M204 S500
G1 F1500 X129.291 Y82.339 E71.57258
M204 S2000
G0 F7500 X128.725 Y82.339
M204 S500
G1 F1500 X121.046 Y74.659 E71.9338
M204 S2000
G0 F7500 X120.48 Y74.659
M204 S500
G1 F1500 X128.16 Y82.339 E72.29505
M204 S2000
G0 F7500 X127.594 Y82.339
M204 S500
G1 F1500 X119.914 Y74.659 E72.65629
M204 S2000
G0 F7500 X119.349 Y74.659
M204 S500
G1 F1500 X127.028 Y82.339 E73.01751
M204 S2000
G0 F7500 X126.463 Y82.339
M204 S500
G1 F1500 X118.783 Y74.659 E73.37876
M204 S2000
G0 F7500 X118.217 Y74.659
M204 S500
G1 F1500 X125.897 Y82.339 E73.74
M204 S2000
G0 F7500 X125.331 Y82.339
M204 S500
G1 F1500 X117.651 Y74.659 E74.10124
M204 S2000
G0 F7500 X117.086 Y74.659
M204 S500
G1 F1500 X124.766 Y82.339 E74.46249
M204 S2000
G0 F7500 X124.2 Y82.339
M204 S500
G1 F1500 X116.52 Y74.659 E74.82373
M204 S2000
G0 F7500 X115.954 Y74.659
M204 S500
G1 F1500 X123.634 Y82.339 E75.18497
M204 S2000
G0 F7500 X123.069 Y82.339
M204 S500
G1 F1500 X115.389 Y74.659 E75.54622
M204 S2000
G0 F7500 X114.823 Y74.659
M204 S500
G1 F1500 X122.503 Y82.339 E75.90746
M204 S2000
G0 F7500 X121.937 Y82.339
M204 S500
G1 F1500 X114.257 Y74.659 E76.26871
M204 S2000
G0 F7500 X113.692 Y74.659
M204 S500
G1 F1500 X121.372 Y82.339 E76.62995
M204 S2000
G0 F7500 X120.806 Y82.339
M204 S500
G1 F1500 X113.126 Y74.659 E76.99119
M204 S2000
G0 F7500 X112.56 Y74.659
M204 S500
G1 F1500 X120.24 Y82.339 E77.35244
M204 S2000
G0 F7500 X119.674 Y82.339
M204 S500
G1 F1500 X111.995 Y74.659 E77.71366
M204 S2000
G0 F7500 X111.429 Y74.659
M204 S500
G1 F1500 X119.109 Y82.339 E78.0749
M204 S2000
G0 F7500 X118.543 Y82.339
M204 S500
G1 F1500 X110.863 Y74.659 E78.43614
M204 S2000
G0 F7500 X110.298 Y74.659
M204 S500
G1 F1500 X117.977 Y82.339 E78.79736
M204 S2000
G0 F7500 X117.412 Y82.339
M204 S500
G1 F1500 X109.732 Y74.659 E79.15861
M204 S2000
G0 F7500 X109.166 Y74.659
M204 S500
G1 F1500 X116.846 Y82.339 E79.51985
M204 S2000
G0 F7500 X116.28 Y82.339
