;FLAVOR:Marlin
;TIME:2701
;Filament used: 2.12826m
;Layer height: 0.2
;MINX:110.5
;MINY:74
;MINZ:0.2
;MAXX:142.5
;MAXY:146
;MAXZ:10.2
;Generated with Cura_SteamEngine 5.4.0
M82 ;absolute extrusion mode
; Ender 3 S1 Pro Start G-code
; M413 S0 ; Disable power loss recovery
G92 E0 ; Reset Extruder

; Prep surfaces before auto home for better accuracy
M140 S60
M104 S200

G28 O ; Home all untrusted axes
M420 S1 Z10
G1 Z10.0 F3000 ; Move Z Axis up little to prevent scratching of Heat Bed
G1 X0 Y0

M190 S60
M109 S200

G1 X0.1 Y20 Z0.3 F5000.0 ; Move to start position
G1 X0.1 Y200.0 Z0.3 F1500.0 E15 ; Draw the first line
G1 X0.4 Y200.0 Z0.3 F5000.0 ; Move to side a little
G1 X0.4 Y20 Z0.3 F1500.0 E30 ; Draw the second line
G92 E0 ; Reset Extruder
G1 Z2.0 F3000 ; Move Z Axis up little to prevent scratching of Heat Bed
G1 X5 Y20 Z0.3 F5000.0 ; Move over to prevent blob squish
G92 E0
G92 E0
G1 F2400 E-0.8
;LAYER_COUNT:50
;LAYER:0
M107
M204 S2000
G1 F300 Z0.4
G0 F7500 X112.664 Y78.469 Z0.4
M204 S500
;TYPE:SKIRT
G1 F300 Z0.2
G1 F2400 E0
G1 F1500 X113.231 Y77.765 E0.03007
G1 X113.956 Y77.013 E0.06481
G1 X114.692 Y76.376 E0.09718
G1 X115.424 Y75.846 E0.12724
G1 X116.321 Y75.311 E0.16198
G1 X117.199 Y74.89 E0.19436
G1 X118.112 Y74.548 E0.22679
G1 X119.049 Y74.289 E0.25912
G1 X120.016 Y74.111 E0.29183
G1 X121.155 Y74.015 E0.32985
G1 X121.812 Y74 E0.3517
G1 X130.804 Y74 E0.65078
G1 X131.684 Y74.013 E0.68005
G1 X132.656 Y74.072 E0.71244
G1 X133.619 Y74.218 E0.74483
G1 X134.566 Y74.449 E0.77725
G1 X135.454 Y74.749 E0.80843
G1 X136.346 Y75.139 E0.84081
G1 X137.229 Y75.626 E0.87435
G1 X137.98 Y76.128 E0.90439
G1 X138.795 Y76.786 E0.93923
G1 X139.493 Y77.464 E0.9716
G1 X140.129 Y78.201 E1.00398
G1 X140.699 Y78.991 E1.03638
G1 X141.161 Y79.767 E1.06641
G1 X141.615 Y80.709 E1.10119
G1 X141.944 Y81.587 E1.13238
G1 X142.213 Y82.559 E1.16592
G1 X142.39 Y83.525 E1.19859
G1 X142.485 Y84.655 E1.2363
G1 X142.5 Y85.33 E1.25876
G1 X142.499 Y134.4 E2.89084
G1 X142.488 Y135.163 E2.91622
G1 X142.431 Y136.136 E2.94863
G1 X142.286 Y137.099 E2.98102
G1 X142.057 Y138.045 E3.0134
G1 X141.746 Y138.969 E3.04582
G1 X141.354 Y139.86 E3.0782
G1 X140.886 Y140.712 E3.11053
G1 X140.364 Y141.493 E3.14177
G1 X139.731 Y142.278 E3.17531
G1 X139.106 Y142.929 E3.20533
G1 X138.317 Y143.617 E3.24015
G1 X137.557 Y144.167 E3.27135
G1 X136.69 Y144.684 E3.30493
G1 X135.812 Y145.106 E3.33733
G1 X134.901 Y145.448 E3.36969
G1 X133.962 Y145.709 E3.40211
G1 X132.996 Y145.887 E3.43478
G1 X131.845 Y145.985 E3.4732
G1 X131.17 Y146 E3.49565
G1 X122.064 Y145.999 E3.79852
G1 X121.331 Y145.988 E3.8229
G1 X120.359 Y145.931 E3.85529
G1 X119.396 Y145.785 E3.88768
G1 X118.45 Y145.556 E3.92005
G1 X117.526 Y145.244 E3.95249
G1 X116.636 Y144.852 E3.98484
G1 X115.813 Y144.401 E4.01605
G1 X114.974 Y143.84 E4.04962
G1 X114.27 Y143.274 E4.07966
G1 X113.517 Y142.549 E4.11443
G1 X112.88 Y141.813 E4.14681
G1 X112.35 Y141.082 E4.17684
G1 X111.814 Y140.185 E4.21159
G1 X111.392 Y139.307 E4.24399
G1 X111.05 Y138.395 E4.27639
G1 X110.79 Y137.457 E4.30876
G1 X110.612 Y136.488 E4.34153
G1 X110.514 Y135.309 E4.38088
G1 X110.5 Y134.658 E4.40254
G1 X110.501 Y85.525 E6.03671
G1 X110.512 Y84.825 E6.05999
G1 X110.57 Y83.852 E6.09241
G1 X110.716 Y82.889 E6.12481
G1 X110.946 Y81.943 E6.15719
G1 X111.259 Y81.02 E6.1896
G1 X111.651 Y80.13 E6.22195
G1 X112.121 Y79.277 E6.25434
G1 X112.664 Y78.469 E6.28672
M204 S2000
G0 F7500 X112.976 Y78.72
M204 S500
G1 F1500 X113.543 Y78.016 E6.31679
G1 X114.218 Y77.315 E6.34915
G1 X114.927 Y76.7 E6.38037
G1 X115.659 Y76.17 E6.41043
G1 X116.495 Y75.671 E6.44281
G1 X117.34 Y75.264 E6.47401
G1 X118.219 Y74.933 E6.50525
G1 X119.122 Y74.682 E6.53642
G1 X120.05 Y74.51 E6.56781
G1 X121.189 Y74.414 E6.60583
G1 X121.821 Y74.4 E6.62685
G1 X130.798 Y74.4 E6.92543
G1 X131.66 Y74.412 E6.9541
G1 X132.597 Y74.468 E6.98532
G1 X133.525 Y74.607 E7.01653
G1 X134.438 Y74.828 E7.04777
G1 X135.294 Y75.116 E7.07781
G1 X136.186 Y75.506 E7.11019
G1 X137.007 Y75.959 E7.14138
G1 X137.758 Y76.461 E7.17143
G1 X138.517 Y77.073 E7.20385
G1 X139.191 Y77.726 E7.23507
G1 X139.805 Y78.435 E7.26626
G1 X140.355 Y79.196 E7.29749
G1 X140.817 Y79.972 E7.32753
G1 X141.24 Y80.849 E7.35991
G1 X141.569 Y81.727 E7.3911
G1 X141.82 Y82.632 E7.42234
G1 X141.991 Y83.559 E7.45369
G1 X142.086 Y84.689 E7.49141
G1 X142.1 Y85.33 E7.51273
G1 X142.099 Y134.395 E9.14464
G1 X142.089 Y135.14 E9.16942
G1 X142.035 Y136.077 E9.20064
G1 X141.897 Y137.006 E9.23187
G1 X141.678 Y137.918 E9.26307
G1 X141.38 Y138.808 E9.29429
G1 X141.003 Y139.668 E9.32552
G1 X140.553 Y140.49 E9.35669
G1 X140.031 Y141.271 E9.38793
G1 X139.442 Y142.001 E9.41913
G1 X138.817 Y142.652 E9.44914
G1 X138.082 Y143.293 E9.48158
G1 X137.322 Y143.843 E9.51278
G1 X136.516 Y144.324 E9.544
G1 X135.671 Y144.732 E9.57521
G1 X134.793 Y145.063 E9.60642
G1 X133.889 Y145.316 E9.63764
G1 X132.962 Y145.488 E9.669
G1 X131.811 Y145.586 E9.70742
G1 X131.17 Y145.6 E9.72875
G1 X122.07 Y145.599 E10.03141
G1 X121.354 Y145.589 E10.05523
G1 X120.418 Y145.535 E10.08641
G1 X119.489 Y145.396 E10.11766
G1 X118.577 Y145.177 E10.14885
G1 X117.687 Y144.878 E10.18008
G1 X116.828 Y144.501 E10.21128
G1 X116.005 Y144.05 E10.24249
G1 X115.225 Y143.528 E10.27371
G1 X114.521 Y142.962 E10.30375
G1 X113.819 Y142.287 E10.33615
G1 X113.204 Y141.578 E10.36736
G1 X112.674 Y140.847 E10.39739
G1 X112.174 Y140.011 E10.42979
G1 X111.766 Y139.166 E10.461
G1 X111.435 Y138.288 E10.49221
G1 X111.183 Y137.384 E10.52342
G1 X111.011 Y136.455 E10.55485
G1 X110.913 Y135.276 E10.5942
G1 X110.9 Y134.658 E10.61476
G1 X110.901 Y85.531 E12.24873
G1 X110.911 Y84.848 E12.27145
G1 X110.966 Y83.911 E12.30266
G1 X111.105 Y82.983 E12.33387
G1 X111.325 Y82.071 E12.36508
G1 X111.625 Y81.181 E12.39632
G1 X112.002 Y80.322 E12.42752
G1 X112.453 Y79.5 E12.4587
G1 X112.976 Y78.72 E12.48994
M204 S2000
G0 F7500 X113.288 Y78.971
M204 S500
G1 F1500 X113.855 Y78.267 E12.52
G1 X114.481 Y77.617 E12.55002
G1 X115.162 Y77.024 E12.58005
G1 X115.894 Y76.494 E12.61011
G1 X116.669 Y76.031 E12.64013
G1 X117.482 Y75.638 E12.67017
G1 X118.327 Y75.318 E12.70022
G1 X119.196 Y75.075 E12.73023
G1 X120.084 Y74.909 E12.76028
G1 X121.223 Y74.813 E12.7983
G1 X121.83 Y74.8 E12.81849
G1 X130.793 Y74.8 E13.1166
G1 X131.637 Y74.811 E13.14467
G1 X132.539 Y74.864 E13.17473
G1 X133.432 Y74.996 E13.20475
G1 X134.31 Y75.207 E13.23478
G1 X135.166 Y75.495 E13.26482
G1 X135.993 Y75.857 E13.29485
G1 X136.785 Y76.292 E13.3249
G1 X137.536 Y76.794 E13.35495
G1 X138.239 Y77.361 E13.38499
G1 X138.889 Y77.988 E13.41503
G1 X139.481 Y78.67 E13.44506
G1 X140.011 Y79.401 E13.47509
G1 X140.473 Y80.177 E13.50513
G1 X140.866 Y80.99 E13.53517
G1 X141.184 Y81.835 E13.56519
G1 X141.427 Y82.705 E13.59524
G1 X141.592 Y83.593 E13.62528
G1 X141.687 Y84.723 E13.663
G1 X141.7 Y85.33 E13.68319
G1 X141.699 Y134.39 E15.31493
G1 X141.69 Y135.117 E15.33911
G1 X141.639 Y136.019 E15.36916
G1 X141.508 Y136.913 E15.39921
G1 X141.299 Y137.791 E15.42923
G1 X141.013 Y138.648 E15.45928
G1 X140.652 Y139.476 E15.48932
G1 X140.22 Y140.268 E15.51933
G1 X139.719 Y141.02 E15.54938
G1 X139.153 Y141.724 E15.57943
G1 X138.528 Y142.375 E15.60944
G1 X137.847 Y142.969 E15.6395
G1 X137.116 Y143.5 E15.66955
G1 X136.342 Y143.964 E15.69957
G1 X135.529 Y144.358 E15.72961
G1 X134.685 Y144.678 E15.75964
G1 X133.815 Y144.923 E15.7897
G1 X132.928 Y145.089 E15.81971
G1 X131.777 Y145.187 E15.85813
G1 X131.17 Y145.2 E15.87833
G1 X122.075 Y145.199 E16.18083
G1 X121.377 Y145.19 E16.20404
G1 X120.476 Y145.139 E16.23406
G1 X119.582 Y145.007 E16.26412
G1 X118.704 Y144.798 E16.29414
G1 X117.847 Y144.511 E16.3242
G1 X117.02 Y144.15 E16.35421
G1 X116.227 Y143.717 E16.38426
G1 X115.476 Y143.216 E16.41429
G1 X114.772 Y142.65 E16.44433
G1 X114.121 Y142.024 E16.47437
G1 X113.528 Y141.343 E16.5044
G1 X112.998 Y140.612 E16.53443
G1 X112.534 Y139.837 E16.56448
G1 X112.14 Y139.024 E16.59453
G1 X111.82 Y138.18 E16.62455
G1 X111.576 Y137.31 E16.6546
G1 X111.41 Y136.422 E16.68465
G1 X111.313 Y135.267 E16.7232
G1 X111.3 Y134.658 E16.74346
G1 X111.301 Y85.536 E18.37726
G1 X111.31 Y84.871 E18.39938
G1 X111.362 Y83.969 E18.42943
G1 X111.494 Y83.076 E18.45946
G1 X111.704 Y82.198 E18.48948
G1 X111.991 Y81.341 E18.51954
G1 X112.353 Y80.514 E18.54957
G1 X112.786 Y79.722 E18.57959
G1 X113.288 Y78.971 E18.60963
M204 S2000
G1 F2400 E17.80963
G1 F300 Z0.4
;MESH:Testbar_1x1x5.stl
G0 F7500 X122.1 Y134.4 Z0.4
M204 S500
;TYPE:WALL-INNER
G1 F300 Z0.2
G1 F2400 E18.60963
G1 F1500 X130.9 Y134.4 E18.90232
G1 X130.9 Y85.6 E20.52542
G1 X122.1 Y85.6 E20.81811
G1 X122.1 Y134.4 E22.4412
M204 S2000
G0 F7500 X121.7 Y134.8
M204 S500
;TYPE:WALL-OUTER
G1 F1440 X131.3 Y134.8 E22.7605
G1 X131.3 Y85.2 E24.4102
G1 X121.7 Y85.2 E24.7295
G1 X121.7 Y134.8 E26.3792
M204 S2000
G0 F7500 X122.46 Y134.04
M204 S500
;TYPE:SKIN
G1 F1500 X122.46 Y85.96 E27.97835
G1 X130.54 Y85.96 E28.24709
G1 X130.54 Y134.04 E29.84624
G1 X122.46 Y134.04 E30.11498
M204 S2000
G0 F7500 X123.091 Y133.839
M204 S500
G1 F1500 X122.659 Y133.407 E30.1353
M204 S2000
G0 F7500 X122.659 Y132.842
M204 S500
G1 F1500 X123.656 Y133.839 E30.1822
M204 S2000
G0 F7500 X124.222 Y133.839
M204 S500
G1 F1500 X122.659 Y132.276 E30.25571
M204 S2000
G0 F7500 X122.659 Y131.71
M204 S500
G1 F1500 X124.788 Y133.839 E30.35586
M204 S2000
G0 F7500 X125.353 Y133.839
M204 S500
G1 F1500 X122.659 Y131.144 E30.4826
M204 S2000
G0 F7500 X122.659 Y130.579
M204 S500
G1 F1500 X125.919 Y133.839 E30.63594
M204 S2000
G0 F7500 X126.485 Y133.839
M204 S500
G1 F1500 X122.659 Y130.013 E30.8159
M204 S2000
G0 F7500 X122.659 Y129.447
M204 S500
G1 F1500 X127.05 Y133.839 E31.02246
M204 S2000
G0 F7500 X127.616 Y133.839
M204 S500
G1 F1500 X122.659 Y128.882 E31.25563
M204 S2000
G0 F7500 X122.659 Y128.316
M204 S500
G1 F1500 X128.182 Y133.839 E31.51541
M204 S2000
G0 F7500 X128.747 Y133.839
M204 S500
G1 F1500 X122.659 Y127.75 E31.8018
M204 S2000
G0 F7500 X122.659 Y127.185
M204 S500
G1 F1500 X129.313 Y133.839 E32.11478
M204 S2000
G0 F7500 X129.879 Y133.839
M204 S500
G1 F1500 X122.659 Y126.619 E32.45439
M204 S2000
G0 F7500 X122.659 Y126.053
M204 S500
G1 F1500 X130.34 Y133.734 E32.81568
M204 S2000
G0 F7500 X130.34 Y133.168
M204 S500
G1 F1500 X122.659 Y125.488 E33.17694
M204 S2000
G0 F7500 X122.659 Y124.922
M204 S500
G1 F1500 X130.34 Y132.603 E33.53823
M204 S2000
G0 F7500 X130.34 Y132.037
M204 S500
G1 F1500 X122.659 Y124.356 E33.89952
M204 S2000
G0 F7500 X122.659 Y123.791
M204 S500
G1 F1500 X130.34 Y131.471 E34.26079
M204 S2000
G0 F7500 X130.34 Y130.905
M204 S500
G1 F1500 X122.659 Y123.225 E34.62206
M204 S2000
G0 F7500 X122.659 Y122.659
M204 S500
G1 F1500 X130.34 Y130.34 E34.98335
M204 S2000
G0 F7500 X130.34 Y129.774
M204 S500
G1 F1500 X122.659 Y122.094 E35.34462
M204 S2000
G0 F7500 X122.659 Y121.528
M204 S500
G1 F1500 X130.34 Y129.208 E35.70588
M204 S2000
G0 F7500 X130.34 Y128.643
M204 S500
G1 F1500 X122.659 Y120.962 E36.06718
M204 S2000
G0 F7500 X122.659 Y120.396
M204 S500
G1 F1500 X130.34 Y128.077 E36.42847
M204 S2000
G0 F7500 X130.34 Y127.511
M204 S500
G1 F1500 X122.659 Y119.831 E36.78973
M204 S2000
G0 F7500 X122.659 Y119.265
M204 S500
G1 F1500 X130.34 Y126.946 E37.15102
M204 S2000
G0 F7500 X130.34 Y126.38
M204 S500
G1 F1500 X122.659 Y118.699 E37.51231
M204 S2000
G0 F7500 X122.659 Y118.134
M204 S500
G1 F1500 X130.34 Y125.814 E37.87358
M204 S2000
G0 F7500 X130.34 Y125.249
M204 S500
G1 F1500 X122.659 Y117.568 E38.23487
M204 S2000
G0 F7500 X122.659 Y117.002
M204 S500
G1 F1500 X130.34 Y124.683 E38.59616
M204 S2000
G0 F7500 X130.34 Y124.117
M204 S500
G1 F1500 X122.659 Y116.437 E38.95743
M204 S2000
G0 F7500 X122.659 Y115.871
M204 S500
G1 F1500 X130.34 Y123.552 E39.31872
M204 S2000
G0 F7500 X130.34 Y122.986
M204 S500
G1 F1500 X122.659 Y115.305 E39.68001
M204 S2000
G0 F7500 X122.659 Y114.74
M204 S500
G1 F1500 X130.34 Y122.42 E40.04128
M204 S2000
G0 F7500 X130.34 Y121.855
M204 S500
G1 F1500 X122.659 Y114.174 E40.40257
M204 S2000
G0 F7500 X122.659 Y113.608
M204 S500
G1 F1500 X130.34 Y121.289 E40.76386
M204 S2000
G0 F7500 X130.34 Y120.723
M204 S500
G1 F1500 X122.659 Y113.043 E41.12513
M204 S2000
G0 F7500 X122.659 Y112.477
M204 S500
G1 F1500 X130.34 Y120.157 E41.48639
M204 S2000
G0 F7500 X130.34 Y119.592
M204 S500
G1 F1500 X122.659 Y111.911 E41.84768
M204 S2000
G0 F7500 X122.659 Y111.345
M204 S500
G1 F1500 X130.34 Y119.026 E42.20898
M204 S2000
G0 F7500 X130.34 Y118.46
M204 S500
G1 F1500 X122.659 Y110.78 E42.57024
M204 S2000
G0 F7500 X122.659 Y110.214
M204 S500
G1 F1500 X130.34 Y117.895 E42.93153
M204 S2000
G0 F7500 X130.34 Y117.329
M204 S500
G1 F1500 X122.659 Y109.648 E43.29282
M204 S2000
G0 F7500 X122.659 Y109.083
M204 S500
G1 F1500 X130.34 Y116.763 E43.65409
M204 S2000
G0 F7500 X130.34 Y116.198
M204 S500
G1 F1500 X122.659 Y108.517 E44.01538
M204 S2000
G0 F7500 X122.659 Y107.951
M204 S500
G1 F1500 X130.34 Y115.632 E44.37667
M204 S2000
G0 F7500 X130.34 Y115.066
M204 S500
G1 F1500 X122.659 Y107.386 E44.73794
M204 S2000
G0 F7500 X122.659 Y106.82
M204 S500
G1 F1500 X130.34 Y114.501 E45.09923
M204 S2000
G0 F7500 X130.34 Y113.935
M204 S500
G1 F1500 X122.659 Y106.254 E45.46052
M204 S2000
G0 F7500 X122.659 Y105.689
M204 S500
G1 F1500 X130.34 Y113.369 E45.82179
M204 S2000
G0 F7500 X130.34 Y112.804
M204 S500
G1 F1500 X122.659 Y105.123 E46.18308
M204 S2000
G0 F7500 X122.659 Y104.557
M204 S500
G1 F1500 X130.34 Y112.238 E46.54437
M204 S2000
G0 F7500 X130.34 Y111.672
M204 S500
G1 F1500 X122.659 Y103.992 E46.90564
M204 S2000
G0 F7500 X122.659 Y103.426
M204 S500
G1 F1500 X130.34 Y111.106 E47.2669
M204 S2000
G0 F7500 X130.34 Y110.541
M204 S500
G1 F1500 X122.659 Y102.86 E47.62819
M204 S2000
G0 F7500 X122.659 Y102.295
M204 S500
G1 F1500 X130.339 Y109.974 E47.98942
M204 S2000
G0 F7500 X130.339 Y109.409
M204 S500
G1 F1500 X122.659 Y101.729 E48.35066
M204 S2000
G0 F7500 X122.659 Y101.163
M204 S500
G1 F1500 X130.339 Y108.843 E48.7119
M204 S2000
G0 F7500 X130.339 Y108.277
M204 S500
G1 F1500 X122.659 Y100.597 E49.07315
M204 S2000
G0 F7500 X122.659 Y100.032
M204 S500
G1 F1500 X130.339 Y107.712 E49.43439
M204 S2000
G0 F7500 X130.339 Y107.146
M204 S500
G1 F1500 X122.659 Y99.466 E49.79563
M204 S2000
G0 F7500 X122.659 Y98.9
M204 S500
G1 F1500 X130.339 Y106.58 E50.15688
M204 S2000
G0 F7500 X130.339 Y106.015
M204 S500
G1 F1500 X122.659 Y98.335 E50.51812
M204 S2000
G0 F7500 X122.659 Y97.769
M204 S500
G1 F1500 X130.339 Y105.449 E50.87936
M204 S2000
G0 F7500 X130.339 Y104.883
M204 S500
G1 F1500 X122.659 Y97.203 E51.24061
M204 S2000
G0 F7500 X122.659 Y96.638
M204 S500
G1 F1500 X130.339 Y104.318 E51.60185
M204 S2000
G0 F7500 X130.339 Y103.752
M204 S500
G1 F1500 X122.659 Y96.072 E51.9631
M204 S2000
G0 F7500 X122.659 Y95.506
M204 S500
G1 F1500 X130.339 Y103.186 E52.32434
M204 S2000
G0 F7500 X130.339 Y102.62
M204 S500
G1 F1500 X122.659 Y94.941 E52.68556
M204 S2000
G0 F7500 X122.659 Y94.375
M204 S500
G1 F1500 X130.339 Y102.055 E53.0468
M204 S2000
G0 F7500 X130.339 Y101.489
M204 S500
G1 F1500 X122.659 Y93.809 E53.40805
M204 S2000
G0 F7500 X122.659 Y93.244
M204 S500
G1 F1500 X130.339 Y100.923 E53.76927
M204 S2000
G0 F7500 X130.339 Y100.358
M204 S500
G1 F1500 X122.659 Y92.678 E54.13051
M204 S2000
G0 F7500 X122.659 Y92.112
M204 S500
G1 F1500 X130.339 Y99.792 E54.49175
M204 S2000
G0 F7500 X130.339 Y99.226
M204 S500
G1 F1500 X122.659 Y91.546 E54.853
M204 S2000
G0 F7500 X122.659 Y90.981
M204 S500
G1 F1500 X130.339 Y98.661 E55.21424
M204 S2000
G0 F7500 X130.339 Y98.095
M204 S500
G1 F1500 X122.659 Y90.415 E55.57548
M204 S2000
G0 F7500 X122.659 Y89.849
M204 S500
G1 F1500 X130.339 Y97.529 E55.93673
M204 S2000
G0 F7500 X130.339 Y96.964
M204 S500
G1 F1500 X122.659 Y89.284 E56.29797
M204 S2000
G0 F7500 X122.659 Y88.718
M204 S500
G1 F1500 X130.339 Y96.398 E56.65922
M204 S2000
G0 F7500 X130.339 Y95.832
M204 S500
G1 F1500 X122.659 Y88.152 E57.02046
M204 S2000
G0 F7500 X122.659 Y87.587
M204 S500
G1 F1500 X130.339 Y95.267 E57.3817
M204 S2000
G0 F7500 X130.339 Y94.701
M204 S500
G1 F1500 X122.659 Y87.021 E57.74295
M204 S2000
G0 F7500 X122.659 Y86.455
M204 S500
G1 F1500 X130.339 Y94.135 E58.10419
M204 S2000
G0 F7500 X130.339 Y93.57
M204 S500
G1 F1500 X122.929 Y86.16 E58.45273
M204 S2000
G0 F7500 X123.495 Y86.16
M204 S500
