;FLAVOR:Marlin
;TIME:9733
;Filament used: 8.40427m
;Layer height: 0.2
;MINX:89
;MINY:49
;MINZ:0.2
;MAXX:131
;MAXY:171
;MAXZ:10
;Generated with Cura_SteamEngine 5.4.0
M82 ;absolute extrusion mode
; Ender 3 S1 Pro Start G-code
; M413 S0 ; Disable power loss recovery
G92 E0 ; Reset Extruder

; Prep surfaces before auto home for better accuracy
M140 S60
M104 S200

G28 O ; Home all untrusted axes
M420 S1 Z10
G1 Z10.0 F3000 ; Move Z Axis up little to prevent scratching of Heat Bed
G1 X0 Y0

M190 S60
M109 S200

G1 X0.1 Y20 Z0.3 F5000.0 ; Move to start position
G1 X0.1 Y200.0 Z0.3 F1500.0 E15 ; Draw the first line
G1 X0.4 Y200.0 Z0.3 F5000.0 ; Move to side a little
G1 X0.4 Y20 Z0.3 F1500.0 E30 ; Draw the second line
G92 E0 ; Reset Extruder
G1 Z2.0 F3000 ; Move Z Axis up little to prevent scratching of Heat Bed
G1 X5 Y20 Z0.3 F5000.0 ; Move over to prevent blob squish
G92 E0
G92 E0
G1 F2400 E-0.8
;LAYER_COUNT:50
;LAYER:0
M107
M204 S2000
G1 F300 Z0.4
G0 F7500 X90.621 Y54.277 Z0.4
M204 S500
;TYPE:SKIRT
G1 F300 Z0.2
G1 F2400 E0
G1 F1500 X91.164 Y53.469 E0.03238
G1 X91.731 Y52.765 E0.06244
G1 X92.456 Y52.013 E0.09719
G1 X93.192 Y51.376 E0.12956
G1 X93.924 Y50.846 E0.15962
G1 X94.821 Y50.311 E0.19436
G1 X95.699 Y49.89 E0.22674
G1 X96.612 Y49.548 E0.25917
G1 X97.549 Y49.289 E0.2915
G1 X98.516 Y49.111 E0.32421
G1 X99.655 Y49.015 E0.36222
G1 X100.312 Y49 E0.38408
G1 X119.304 Y49 E1.01576
G1 X120.184 Y49.013 E1.04503
G1 X121.156 Y49.072 E1.07742
G1 X122.119 Y49.218 E1.10981
G1 X123.066 Y49.449 E1.14224
G1 X123.954 Y49.749 E1.17341
G1 X124.846 Y50.139 E1.20579
G1 X125.729 Y50.626 E1.23933
G1 X126.48 Y51.128 E1.26937
G1 X127.295 Y51.786 E1.30421
G1 X127.993 Y52.464 E1.33658
G1 X128.629 Y53.201 E1.36896
G1 X129.199 Y53.991 E1.40136
G1 X129.661 Y54.767 E1.43139
G1 X130.115 Y55.709 E1.46617
G1 X130.444 Y56.587 E1.49736
G1 X130.713 Y57.559 E1.5309
G1 X130.89 Y58.525 E1.56357
G1 X130.985 Y59.655 E1.60128
G1 X131 Y60.33 E1.62374
G1 X130.999 Y159.4 E4.91882
G1 X130.988 Y160.163 E4.9442
G1 X130.931 Y161.136 E4.97662
G1 X130.786 Y162.099 E5.00901
G1 X130.557 Y163.045 E5.04138
G1 X130.246 Y163.969 E5.07381
G1 X129.854 Y164.86 E5.10619
G1 X129.386 Y165.712 E5.13852
G1 X128.864 Y166.493 E5.16976
G1 X128.231 Y167.278 E5.2033
G1 X127.606 Y167.929 E5.23332
G1 X126.817 Y168.617 E5.26814
G1 X126.057 Y169.167 E5.29934
G1 X125.19 Y169.684 E5.33291
G1 X124.312 Y170.106 E5.36531
G1 X123.401 Y170.448 E5.39768
G1 X122.462 Y170.709 E5.43009
G1 X121.496 Y170.887 E5.46276
G1 X120.345 Y170.985 E5.50118
G1 X119.67 Y171 E5.52364
G1 X100.564 Y170.999 E6.15911
G1 X99.831 Y170.988 E6.18349
G1 X98.859 Y170.931 E6.21587
G1 X97.896 Y170.785 E6.24827
G1 X96.95 Y170.556 E6.28064
G1 X96.026 Y170.244 E6.31308
G1 X95.136 Y169.852 E6.34543
G1 X94.313 Y169.401 E6.37664
G1 X93.474 Y168.84 E6.41021
G1 X92.77 Y168.274 E6.44025
G1 X92.017 Y167.549 E6.47502
G1 X91.38 Y166.813 E6.50739
G1 X90.85 Y166.082 E6.53742
G1 X90.314 Y165.185 E6.57218
G1 X89.892 Y164.307 E6.60458
G1 X89.55 Y163.395 E6.63698
G1 X89.29 Y162.457 E6.66935
G1 X89.112 Y161.488 E6.70212
G1 X89.014 Y160.309 E6.74147
G1 X89 Y159.658 E6.76313
G1 X89.001 Y60.525 E10.0603
G1 X89.012 Y59.825 E10.08359
G1 X89.07 Y58.852 E10.11601
G1 X89.216 Y57.889 E10.1484
G1 X89.446 Y56.943 E10.18078
G1 X89.759 Y56.02 E10.2132
G1 X90.151 Y55.13 E10.24554
G1 X90.621 Y54.277 E10.27794
M204 S2000
G0 F7500 X90.953 Y54.5
M204 S500
G1 F1500 X91.476 Y53.72 E10.30917
G1 X92.043 Y53.016 E10.33924
G1 X92.718 Y52.315 E10.3716
G1 X93.427 Y51.7 E10.40282
G1 X94.159 Y51.17 E10.43288
G1 X94.995 Y50.671 E10.46526
G1 X95.84 Y50.264 E10.49646
G1 X96.719 Y49.933 E10.5277
G1 X97.622 Y49.682 E10.55887
G1 X98.55 Y49.51 E10.59026
G1 X99.689 Y49.414 E10.62828
G1 X100.321 Y49.4 E10.6493
G1 X119.298 Y49.4 E11.28048
G1 X120.16 Y49.412 E11.30915
G1 X121.097 Y49.468 E11.34037
G1 X122.025 Y49.607 E11.37158
G1 X122.938 Y49.828 E11.40283
G1 X123.794 Y50.116 E11.43287
G1 X124.686 Y50.506 E11.46525
G1 X125.507 Y50.959 E11.49643
G1 X126.258 Y51.461 E11.52648
G1 X127.017 Y52.073 E11.55891
G1 X127.691 Y52.726 E11.59012
G1 X128.305 Y53.435 E11.62131
G1 X128.855 Y54.196 E11.65254
G1 X129.317 Y54.972 E11.68258
G1 X129.74 Y55.849 E11.71497
G1 X130.069 Y56.727 E11.74615
G1 X130.32 Y57.632 E11.77739
G1 X130.491 Y58.559 E11.80874
G1 X130.586 Y59.689 E11.84646
G1 X130.6 Y60.33 E11.86778
G1 X130.599 Y159.395 E15.1627
G1 X130.589 Y160.14 E15.18748
G1 X130.535 Y161.077 E15.2187
G1 X130.397 Y162.006 E15.24993
G1 X130.178 Y162.918 E15.28113
G1 X129.88 Y163.808 E15.31235
G1 X129.503 Y164.668 E15.34358
G1 X129.053 Y165.49 E15.37475
G1 X128.531 Y166.271 E15.40599
G1 X127.942 Y167.001 E15.43719
G1 X127.317 Y167.652 E15.4672
G1 X126.582 Y168.293 E15.49964
G1 X125.822 Y168.843 E15.53084
G1 X125.016 Y169.324 E15.56206
G1 X124.171 Y169.732 E15.59327
G1 X123.293 Y170.063 E15.62448
G1 X122.389 Y170.316 E15.6557
G1 X121.462 Y170.488 E15.68706
G1 X120.311 Y170.586 E15.72548
G1 X119.67 Y170.6 E15.74681
G1 X100.57 Y170.599 E16.38207
G1 X99.854 Y170.589 E16.40589
G1 X98.918 Y170.535 E16.43707
G1 X97.989 Y170.396 E16.46832
G1 X97.077 Y170.177 E16.49951
G1 X96.187 Y169.878 E16.53074
G1 X95.328 Y169.501 E16.56194
G1 X94.505 Y169.05 E16.59315
G1 X93.725 Y168.528 E16.62437
G1 X93.021 Y167.962 E16.65441
G1 X92.319 Y167.287 E16.68681
G1 X91.704 Y166.578 E16.71802
G1 X91.174 Y165.847 E16.74805
G1 X90.674 Y165.011 E16.78045
G1 X90.266 Y164.166 E16.81166
G1 X89.935 Y163.288 E16.84287
G1 X89.683 Y162.384 E16.87408
G1 X89.511 Y161.455 E16.90551
G1 X89.413 Y160.276 E16.94486
G1 X89.4 Y159.658 E16.96542
G1 X89.401 Y60.531 E20.26239
G1 X89.411 Y59.848 E20.28511
G1 X89.466 Y58.911 E20.31633
G1 X89.605 Y57.983 E20.34754
G1 X89.825 Y57.071 E20.37874
G1 X90.125 Y56.181 E20.40998
G1 X90.502 Y55.322 E20.44118
G1 X90.953 Y54.5 E20.47237
M204 S2000
G0 F7500 X91.286 Y54.722
M204 S500
G1 F1500 X91.788 Y53.971 E20.50241
G1 X92.355 Y53.267 E20.53248
G1 X92.981 Y52.617 E20.56249
G1 X93.662 Y52.024 E20.59253
G1 X94.394 Y51.494 E20.62258
G1 X95.169 Y51.031 E20.65261
G1 X95.982 Y50.638 E20.68265
G1 X96.827 Y50.318 E20.7127
G1 X97.696 Y50.075 E20.74271
G1 X98.584 Y49.909 E20.77276
G1 X99.723 Y49.813 E20.81077
G1 X100.33 Y49.8 E20.83097
G1 X119.293 Y49.8 E21.46168
G1 X120.137 Y49.811 E21.48975
G1 X121.039 Y49.864 E21.51981
G1 X121.932 Y49.996 E21.54983
G1 X122.81 Y50.207 E21.57986
G1 X123.666 Y50.495 E21.6099
G1 X124.493 Y50.857 E21.63993
G1 X125.285 Y51.292 E21.66998
G1 X126.036 Y51.794 E21.70003
G1 X126.739 Y52.361 E21.73007
G1 X127.389 Y52.988 E21.7601
G1 X127.981 Y53.67 E21.79014
G1 X128.511 Y54.401 E21.82017
G1 X128.973 Y55.177 E21.85021
G1 X129.366 Y55.99 E21.88024
G1 X129.684 Y56.835 E21.91027
G1 X129.927 Y57.705 E21.94032
G1 X130.092 Y58.593 E21.97036
G1 X130.187 Y59.723 E22.00807
G1 X130.2 Y60.33 E22.02827
G1 X130.199 Y159.39 E25.32302
G1 X130.19 Y160.117 E25.3472
G1 X130.139 Y161.019 E25.37725
G1 X130.008 Y161.913 E25.4073
G1 X129.799 Y162.791 E25.43732
G1 X129.513 Y163.648 E25.46737
G1 X129.152 Y164.476 E25.49741
G1 X128.72 Y165.268 E25.52742
G1 X128.219 Y166.02 E25.55747
G1 X127.653 Y166.724 E25.58751
G1 X127.028 Y167.375 E25.61753
G1 X126.347 Y167.969 E25.64759
G1 X125.616 Y168.5 E25.67764
G1 X124.842 Y168.964 E25.70765
G1 X124.029 Y169.358 E25.7377
G1 X123.185 Y169.678 E25.76772
G1 X122.315 Y169.923 E25.79778
G1 X121.428 Y170.089 E25.8278
G1 X120.277 Y170.187 E25.86622
G1 X119.67 Y170.2 E25.88641
G1 X100.575 Y170.199 E26.52151
G1 X99.877 Y170.19 E26.54473
G1 X98.976 Y170.139 E26.57475
G1 X98.082 Y170.007 E26.6048
G1 X97.204 Y169.798 E26.63482
G1 X96.347 Y169.511 E26.66488
G1 X95.52 Y169.15 E26.69489
G1 X94.727 Y168.717 E26.72495
G1 X93.976 Y168.216 E26.75497
G1 X93.272 Y167.65 E26.78502
G1 X92.621 Y167.024 E26.81506
G1 X92.028 Y166.343 E26.84509
G1 X91.498 Y165.612 E26.87512
G1 X91.034 Y164.837 E26.90516
G1 X90.64 Y164.024 E26.93521
G1 X90.32 Y163.18 E26.96523
G1 X90.076 Y162.31 E26.99529
G1 X89.91 Y161.422 E27.02533
G1 X89.813 Y160.267 E27.06388
G1 X89.8 Y159.658 E27.08414
G1 X89.801 Y60.536 E30.38095
G1 X89.81 Y59.871 E30.40307
G1 X89.862 Y58.969 E30.43313
G1 X89.994 Y58.076 E30.46315
G1 X90.204 Y57.198 E30.49318
G1 X90.491 Y56.341 E30.52324
G1 X90.853 Y55.514 E30.55326
G1 X91.286 Y54.722 E30.58328
M204 S2000
G1 F2400 E29.78328
G1 F300 Z0.4
;MESH:Testbar_1x2x10.stl
G0 F7500 X119.4 Y159.4 Z0.4
M204 S500
;TYPE:WALL-INNER
G1 F300 Z0.2
G1 F2400 E30.58328
G1 F1500 X119.4 Y60.6 E33.86938
G1 X100.6 Y60.6 E34.49467
G1 X100.6 Y159.4 E37.78078
G1 X119.4 Y159.4 E38.40607
M204 S2000
G0 F7500 X119.8 Y159.8
M204 S500
;TYPE:WALL-OUTER
G1 F1440 X119.8 Y60.2 E41.71878
G1 X100.2 Y60.2 E42.37067
G1 X100.2 Y159.8 E45.68338
G1 X119.8 Y159.8 E46.33528
M204 S2000
G0 F7500 X119.04 Y159.04
M204 S500
;TYPE:SKIN
G1 F1500 X100.96 Y159.04 E46.93663
G1 X100.96 Y60.96 E50.19878
G1 X119.04 Y60.96 E50.80012
G1 X119.04 Y159.04 E54.06228
M204 S2000
G1 F2400 E53.26228
G1 F300 Z0.4
G0 F7500 X101.704 Y158.838 Z0.4
M204 S500
G1 F300 Z0.2
G1 F2400 E54.06228
G1 F1500 X101.159 Y158.293 E54.08791
M204 S2000
G0 F7500 X101.159 Y157.727
M204 S500
G1 F1500 X102.27 Y158.838 E54.14017
M204 S2000
G0 F7500 X102.835 Y158.838
M204 S500
G1 F1500 X101.159 Y157.162 E54.219
M204 S2000
G0 F7500 X101.159 Y156.596
M204 S500
G1 F1500 X103.401 Y158.838 E54.32446
M204 S2000
G0 F7500 X103.967 Y158.838
M204 S500
G1 F1500 X101.159 Y156.03 E54.45654
M204 S2000
G0 F7500 X101.159 Y155.465
M204 S500
G1 F1500 X104.533 Y158.838 E54.61522
M204 S2000
G0 F7500 X105.098 Y158.838
M204 S500
G1 F1500 X101.159 Y154.899 E54.8005
M204 S2000
G0 F7500 X101.159 Y154.333
M204 S500
G1 F1500 X105.664 Y158.838 E55.0124
M204 S2000
G0 F7500 X106.23 Y158.838
M204 S500
G1 F1500 X101.159 Y153.768 E55.2509
M204 S2000
G0 F7500 X101.159 Y153.202
M204 S500
G1 F1500 X106.795 Y158.838 E55.516
M204 S2000
G0 F7500 X107.361 Y158.838
M204 S500
G1 F1500 X101.159 Y152.636 E55.80772
M204 S2000
G0 F7500 X101.159 Y152.071
M204 S500
G1 F1500 X107.927 Y158.838 E56.12605
M204 S2000
G0 F7500 X108.492 Y158.838
M204 S500
G1 F1500 X101.159 Y151.505 E56.47097
M204 S2000
G0 F7500 X101.159 Y150.939
M204 S500
G1 F1500 X109.058 Y158.838 E56.84251
M204 S2000
G0 F7500 X109.624 Y158.838
M204 S500
G1 F1500 X101.159 Y150.374 E57.24066
M204 S2000
G0 F7500 X101.159 Y149.808
M204 S500
G1 F1500 X110.189 Y158.838 E57.6654
M204 S2000
G0 F7500 X110.755 Y158.838
M204 S500
G1 F1500 X101.159 Y149.242 E58.11677
M204 S2000
G0 F7500 X101.159 Y148.676
M204 S500
G1 F1500 X111.321 Y158.838 E58.59476
M204 S2000
G0 F7500 X111.886 Y158.838
M204 S500
G1 F1500 X101.159 Y148.111 E59.09932
M204 S2000
G0 F7500 X101.159 Y147.545
M204 S500
G1 F1500 X112.452 Y158.838 E59.63051
M204 S2000
G0 F7500 X113.018 Y158.838
M204 S500
G1 F1500 X101.159 Y146.979 E60.18832
M204 S2000
G0 F7500 X101.159 Y146.414
M204 S500
G1 F1500 X113.583 Y158.838 E60.77271
M204 S2000
G0 F7500 X114.149 Y158.838
M204 S500
G1 F1500 X101.159 Y145.848 E61.38372
M204 S2000
G0 F7500 X101.159 Y145.282
M204 S500
G1 F1500 X114.715 Y158.838 E62.02135
M204 S2000
G0 F7500 X115.281 Y158.838
M204 S500
G1 F1500 X101.159 Y144.717 E62.68558
M204 S2000
G0 F7500 X101.159 Y144.151
M204 S500
G1 F1500 X115.846 Y158.838 E63.37641
M204 S2000
G0 F7500 X116.412 Y158.838
M204 S500
G1 F1500 X101.159 Y143.585 E64.09387
M204 S2000
G0 F7500 X101.159 Y143.02
M204 S500
G1 F1500 X116.978 Y158.838 E64.83792
M204 S2000
G0 F7500 X117.543 Y158.838
M204 S500
G1 F1500 X101.159 Y142.454 E65.60857
M204 S2000
G0 F7500 X101.159 Y141.888
M204 S500
G1 F1500 X118.109 Y158.838 E66.40585
M204 S2000
G0 F7500 X118.675 Y158.838
M204 S500
G1 F1500 X101.159 Y141.323 E67.22973
M204 S2000
G0 F7500 X101.159 Y140.757
M204 S500
G1 F1500 X118.839 Y158.437 E68.06134
M204 S2000
G0 F7500 X118.839 Y157.872
M204 S500
G1 F1500 X101.159 Y140.191 E68.89298
M204 S2000
G0 F7500 X101.159 Y139.626
M204 S500
G1 F1500 X118.839 Y157.306 E69.72459
M204 S2000
G0 F7500 X118.839 Y156.74
M204 S500
G1 F1500 X101.159 Y139.06 E70.5562
M204 S2000
G0 F7500 X101.159 Y138.494
M204 S500
G1 F1500 X118.839 Y156.175 E71.38784
M204 S2000
G0 F7500 X118.839 Y155.609
M204 S500
G1 F1500 X101.159 Y137.928 E72.21947
M204 S2000
G0 F7500 X101.159 Y137.363
M204 S500
G1 F1500 X118.839 Y155.043 E73.05109
M204 S2000
G0 F7500 X118.839 Y154.478
M204 S500
G1 F1500 X101.159 Y136.797 E73.88272
M204 S2000
G0 F7500 X101.159 Y136.231
M204 S500
G1 F1500 X118.839 Y153.912 E74.71436
M204 S2000
G0 F7500 X118.839 Y153.346
M204 S500
G1 F1500 X101.159 Y135.666 E75.54597
M204 S2000
G0 F7500 X101.159 Y135.1
M204 S500
G1 F1500 X118.839 Y152.781 E76.37761
M204 S2000
G0 F7500 X118.839 Y152.215
M204 S500
G1 F1500 X101.159 Y134.534 E77.20925
M204 S2000
G0 F7500 X101.159 Y133.969
M204 S500
G1 F1500 X118.839 Y151.649 E78.04086
M204 S2000
G0 F7500 X118.839 Y151.083
M204 S500
G1 F1500 X101.159 Y133.403 E78.87247
M204 S2000
G0 F7500 X101.159 Y132.837
M204 S500
G1 F1500 X118.839 Y150.518 E79.70411
M204 S2000
G0 F7500 X118.839 Y149.952
M204 S500
G1 F1500 X101.159 Y132.272 E80.53572
M204 S2000
G0 F7500 X101.159 Y131.706
M204 S500
G1 F1500 X118.839 Y149.386 E81.36734
M204 S2000
G0 F7500 X118.839 Y148.821
M204 S500
G1 F1500 X101.159 Y131.14 E82.19897
M204 S2000
G0 F7500 X101.159 Y130.575
M204 S500
G1 F1500 X118.839 Y148.255 E83.03058
M204 S2000
G0 F7500 X118.839 Y147.689
M204 S500
G1 F1500 X101.159 Y130.009 E83.8622
M204 S2000
G0 F7500 X101.159 Y129.443
M204 S500
G1 F1500 X118.839 Y147.124 E84.69383
M204 S2000
G0 F7500 X118.839 Y146.558
M204 S500
G1 F1500 X101.159 Y128.877 E85.52547
M204 S2000
G0 F7500 X101.159 Y128.312
M204 S500
G1 F1500 X118.839 Y145.992 E86.35708
M204 S2000
G0 F7500 X118.839 Y145.427
M204 S500
G1 F1500 X101.159 Y127.746 E87.18872
M204 S2000
G0 F7500 X101.159 Y127.18
M204 S500
G1 F1500 X118.839 Y144.861 E88.02036
M204 S2000
G0 F7500 X118.839 Y144.295
M204 S500
G1 F1500 X101.159 Y126.615 E88.85197
M204 S2000
G0 F7500 X101.159 Y126.049
M204 S500
G1 F1500 X118.839 Y143.73 E89.68361
M204 S2000
G0 F7500 X118.839 Y143.164
M204 S500
G1 F1500 X101.159 Y125.483 E90.51524
M204 S2000
G0 F7500 X101.159 Y124.918
M204 S500
G1 F1500 X118.839 Y142.598 E91.34686
M204 S2000
G0 F7500 X118.839 Y142.033
M204 S500
G1 F1500 X101.159 Y124.352 E92.17849
M204 S2000
G0 F7500 X101.159 Y123.786
M204 S500
G1 F1500 X118.839 Y141.467 E93.01013
M204 S2000
G0 F7500 X118.839 Y140.901
M204 S500
G1 F1500 X101.159 Y123.221 E93.84174
M204 S2000
G0 F7500 X101.159 Y122.655
M204 S500
G1 F1500 X118.839 Y140.335 E94.67335
M204 S2000
G0 F7500 X118.839 Y139.77
M204 S500
G1 F1500 X101.159 Y122.089 E95.50499
M204 S2000
G0 F7500 X101.159 Y121.524
M204 S500
G1 F1500 X118.839 Y139.204 E96.3366
M204 S2000
G0 F7500 X118.839 Y138.638
M204 S500
G1 F1500 X101.159 Y120.958 E97.16822
M204 S2000
G0 F7500 X101.159 Y120.392
M204 S500
G1 F1500 X118.839 Y138.073 E97.99985
M204 S2000
G0 F7500 X118.839 Y137.507
M204 S500
G1 F1500 X101.159 Y119.827 E98.83147
M204 S2000
G0 F7500 X101.159 Y119.261
M204 S500
G1 F1500 X118.839 Y136.941 E99.66308
M204 S2000
G0 F7500 X118.839 Y136.376
M204 S500
G1 F1500 X101.159 Y118.695 E100.49472
M204 S2000
G0 F7500 X101.159 Y118.129
M204 S500
G1 F1500 X118.839 Y135.81 E101.32635
M204 S2000
G0 F7500 X118.839 Y135.244
M204 S500
G1 F1500 X101.159 Y117.564 E102.15797
M204 S2000
G0 F7500 X101.159 Y116.998
M204 S500
G1 F1500 X118.839 Y134.679 E102.9896
M204 S2000
G0 F7500 X118.839 Y134.113
M204 S500
G1 F1500 X101.159 Y116.432 E103.82124
M204 S2000
G0 F7500 X101.159 Y115.867
M204 S500
G1 F1500 X118.839 Y133.547 E104.65285
M204 S2000
G0 F7500 X118.839 Y132.982
M204 S500
G1 F1500 X101.159 Y115.301 E105.48449
M204 S2000
G0 F7500 X101.159 Y114.735
M204 S500
G1 F1500 X118.839 Y132.416 E106.31612
M204 S2000
G0 F7500 X118.839 Y131.85
M204 S500
G1 F1500 X101.159 Y114.17 E107.14774
M204 S2000
G0 F7500 X101.159 Y113.604
M204 S500
G1 F1500 X118.839 Y131.284 E107.97935
M204 S2000
G0 F7500 X118.839 Y130.719
M204 S500
G1 F1500 X101.159 Y113.038 E108.81099
M204 S2000
G0 F7500 X101.159 Y112.473
M204 S500
G1 F1500 X118.839 Y130.153 E109.6426
M204 S2000
G0 F7500 X118.839 Y129.587
M204 S500
G1 F1500 X101.159 Y111.907 E110.47421
M204 S2000
G0 F7500 X101.159 Y111.341
M204 S500
G1 F1500 X118.839 Y129.022 E111.30585
M204 S2000
